; generated by Slic3r 0.9.9 on 2015-06-05 at 07:58:38

; layer_height = 0.25
; perimeters = 3
; top_solid_layers = 5
; bottom_solid_layers = 3
; fill_density = 0.5
; perimeter_speed = 30
; infill_speed = 60
; travel_speed = 130
; nozzle_diameter = 0.4
; filament_diameter = 1.70
; extrusion_multiplier = 1.05
; perimeters extrusion width = 0.53mm
; infill extrusion width = 0.53mm
; solid infill extrusion width = 0.53mm
; top infill extrusion width = 0.53mm
; first layer extrusion width = 0.50mm

G21 ; set units to millimeters
M107
M190 S70 ; wait for bed temperature to be reached
M104 S205 ; set temperature
G28 ; home all axes
G1 Z5 F5000 ; lift nozzle
M109 S205 ; wait for temperature to be reached
G90 ; use absolute coordinates
G92 E0
M82 ; use absolute distances for extrusion
G1 F1800.000 E-1.00000
G92 E0
G1 Z0.250 F7800.000
G1 X5.731 Y34.892
G1 F1800.000 E1.00000
G1 X6.761 Y34.732 F540.000 E1.05769
G1 X7.391 Y34.692 E1.09262
G1 X8.021 Y34.712 E1.12751
G1 X8.341 Y34.742 E1.14529
G1 X9.561 Y34.942 E1.21371
G1 X10.421 Y35.132 E1.26245
G1 X133.341 Y71.912 E8.36317
G1 X134.661 Y72.402 E8.44110
G1 X135.421 Y72.752 E8.48740
G1 X136.171 Y73.152 E8.53444
G1 X136.891 Y73.592 E8.58114
G1 X137.591 Y74.082 E8.62843
G1 X138.231 Y74.582 E8.67338
G1 X138.871 Y75.152 E8.72081
G1 X139.441 Y75.732 E8.76581
G1 X140.001 Y76.362 E8.81246
G1 X140.441 Y76.902 E8.85101
G1 X140.781 Y77.372 E8.88311
G1 X141.131 Y77.922 E8.91919
G1 X141.561 Y78.652 E8.96608
G1 X141.931 Y79.362 E9.01039
G1 X142.401 Y80.452 E9.07608
G1 X150.971 Y102.492 E10.38480
G1 X151.181 Y103.102 E10.42050
G1 X151.331 Y103.732 E10.45634
G1 X151.421 Y104.372 E10.49211
G1 X151.441 Y104.692 E10.50985
G1 X151.451 Y108.222 E10.70521
G1 X151.431 Y108.772 E10.73567
G1 X151.361 Y109.312 E10.76581
G1 X151.191 Y110.112 E10.81107
G1 X150.921 Y110.882 E10.85623
G1 X150.691 Y111.372 E10.88618
G1 X150.281 Y112.082 E10.93156
G1 X149.961 Y112.522 E10.96167
G1 X149.601 Y112.942 E10.99228
G1 X149.021 Y113.502 E11.03690
G1 X148.591 Y113.842 E11.06724
G1 X148.131 Y114.152 E11.09794
G1 X147.661 Y114.412 E11.12766
G1 X147.161 Y114.642 E11.15812
G1 X146.391 Y114.912 E11.20328
G1 X145.591 Y115.092 E11.24866
G1 X145.321 Y115.132 E11.26377
G1 X144.781 Y115.172 E11.29373
G1 X94.071 Y115.292 E14.10017
G1 X89.001 Y115.042 E14.38109
G1 X88.491 Y115.002 E14.40940
G1 X83.441 Y114.382 E14.69098
G1 X77.461 Y113.192 E15.02842
G1 X72.561 Y111.842 E15.30970
G1 X72.071 Y111.682 E15.33823
G1 X67.281 Y109.972 E15.61971
G1 X66.801 Y109.782 E15.64828
G1 X62.041 Y107.672 E15.93643
G1 X61.601 Y107.452 E15.96365
G1 X56.781 Y104.882 E16.26596
G1 X52.481 Y102.172 E16.54725
G1 X47.581 Y98.562 E16.88407
G1 X43.711 Y95.252 E17.16590
G1 X43.321 Y94.892 E17.19528
G1 X39.551 Y91.142 E17.48956
G1 X0.991 Y50.002 E20.61010
G1 X0.601 Y49.542 E20.64348
G1 X0.091 Y48.802 E20.69322
G1 X-0.549 Y47.712 E20.76317
G1 X-0.839 Y47.082 E20.80155
G1 X-0.959 Y46.752 E20.82099
G1 X-1.069 Y46.422 E20.84024
G1 X-1.239 Y45.762 E20.87796
G1 X-1.409 Y44.722 E20.93628
G1 X-1.429 Y44.492 E20.94905
G1 X-1.449 Y43.692 E20.99334
G1 X-1.439 Y43.342 E21.01272
G1 X-1.389 Y42.622 E21.05266
G1 X-1.349 Y42.382 E21.06613
G1 X-1.179 Y41.562 E21.11247
G1 X-1.049 Y41.102 E21.13893
G1 X-0.889 Y40.642 E21.16588
G1 X-0.609 Y39.952 E21.20709
G1 X-0.359 Y39.442 E21.23852
G1 X-0.069 Y38.962 E21.26956
G1 X0.121 Y38.672 E21.28875
G1 X0.731 Y37.872 E21.34442
G1 X1.131 Y37.422 E21.37775
G1 X1.501 Y37.062 E21.40631
G1 X2.171 Y36.522 E21.45394
G1 X3.011 Y35.962 E21.50981
G1 X3.311 Y35.792 E21.52889
G1 X4.361 Y35.302 E21.59302
G1 X4.951 Y35.092 E21.62768
G1 X5.661 Y34.908 E21.66827
G1 X5.831 Y35.362 F7800.000
G1 X6.521 Y35.252 F540.000 E21.70694
G1 X7.111 Y35.182 E21.73982
G1 X7.701 Y35.172 E21.77248
G1 X8.571 Y35.262 E21.82088
G1 X9.481 Y35.412 E21.87192
G1 X10.291 Y35.592 E21.91784
G1 X133.211 Y72.372 E29.01856
G1 X134.491 Y72.852 E29.09422
G1 X135.201 Y73.172 E29.13732
G1 X135.951 Y73.572 E29.18436
G1 X136.621 Y73.982 E29.22783
G1 X137.321 Y74.472 E29.27512
G1 X137.911 Y74.942 E29.31686
G1 X138.551 Y75.512 E29.36429
G1 X139.081 Y76.052 E29.40617
G1 X139.641 Y76.682 E29.45282
G1 X140.051 Y77.182 E29.48860
G1 X140.391 Y77.652 E29.52071
G1 X140.721 Y78.162 E29.55432
G1 X141.151 Y78.892 E29.60121
G1 X141.491 Y79.562 E29.64279
G1 X141.961 Y80.622 E29.70696
G1 X150.531 Y102.662 E31.01568
G1 X150.801 Y103.522 E31.06557
G1 X150.911 Y104.112 E31.09878
G1 X150.971 Y105.012 E31.14870
G1 X150.971 Y108.222 E31.32635
G1 X150.951 Y108.752 E31.35570
G1 X150.831 Y109.552 E31.40047
G1 X150.701 Y110.072 E31.43013
G1 X150.531 Y110.572 E31.45936
G1 X150.191 Y111.302 E31.50393
G1 X149.771 Y111.982 E31.54816
G1 X149.441 Y112.402 E31.57772
G1 X149.081 Y112.802 E31.60750
G1 X148.481 Y113.332 E31.65181
G1 X148.041 Y113.642 E31.68160
G1 X147.351 Y114.042 E31.72574
G1 X146.611 Y114.342 E31.76993
G1 X146.351 Y114.432 E31.78515
G1 X145.831 Y114.562 E31.81482
G1 X145.041 Y114.682 E31.85904
G1 X144.511 Y114.702 E31.88839
G1 X94.091 Y114.812 E34.67877
G1 X89.021 Y114.562 E34.95970
G1 X88.551 Y114.522 E34.98581
G1 X83.501 Y113.902 E35.26738
G1 X83.031 Y113.822 E35.29377
G1 X77.591 Y112.732 E35.60082
G1 X72.691 Y111.382 E35.88210
G1 X67.441 Y109.522 E36.19034
G1 X66.991 Y109.342 E36.21717
G1 X62.231 Y107.232 E36.50532
G1 X61.821 Y107.032 E36.53057
G1 X57.451 Y104.712 E36.80438
G1 X57.041 Y104.472 E36.83067
G1 X52.351 Y101.502 E37.13790
G1 X48.261 Y98.492 E37.41894
G1 X44.021 Y94.882 E37.72712
G1 X43.661 Y94.552 E37.75415
G1 X39.901 Y90.812 E38.04765
G1 X1.341 Y49.672 E41.16819
G1 X0.981 Y49.252 E41.19881
G1 X0.651 Y48.792 E41.23014
G1 X-0.129 Y47.482 E41.31452
G1 X-0.399 Y46.902 E41.34992
G1 X-0.609 Y46.292 E41.38563
G1 X-0.779 Y45.652 E41.42227
G1 X-0.949 Y44.452 E41.48935
G1 X-0.979 Y43.702 E41.53089
G1 X-0.969 Y43.352 E41.55027
G1 X-0.939 Y42.902 E41.57522
G1 X-0.839 Y42.232 E41.61272
G1 X-0.719 Y41.672 E41.64441
G1 X-0.599 Y41.242 E41.66912
G1 X-0.169 Y40.142 E41.73448
G1 X0.191 Y39.442 E41.77804
G1 X0.521 Y38.932 E41.81166
G1 X1.091 Y38.192 E41.86336
G1 X1.481 Y37.752 E41.89589
G1 X1.821 Y37.422 E41.92212
G1 X2.461 Y36.902 E41.96775
G1 X3.251 Y36.372 E42.02040
G1 X3.551 Y36.202 E42.03948
G1 X4.531 Y35.752 E42.09917
G1 X5.091 Y35.552 E42.13207
G1 X5.761 Y35.379 E42.17038
G1 F1800.000 E41.17038
G92 E0
G1 X23.482 Y57.238 F7800.000
G1 F1800.000 E1.00000
G1 X23.797 Y57.037 F540.000 E1.02067
G1 X24.134 Y56.878 E1.04129
G1 X24.489 Y56.762 E1.06195
G1 X24.856 Y56.692 E1.08261
G1 X25.228 Y56.668 E1.10326
G1 X25.601 Y56.691 E1.12391
G1 X25.968 Y56.761 E1.14458
G1 X26.322 Y56.876 E1.16521
G1 X26.660 Y57.034 E1.18587
G1 X26.975 Y57.234 E1.20651
G1 X27.263 Y57.471 E1.22717
G1 X27.519 Y57.743 E1.24785
G1 X27.739 Y58.045 E1.26849
G1 X27.919 Y58.372 E1.28915
G1 X28.057 Y58.719 E1.30980
G1 X28.150 Y59.080 E1.33045
G1 X28.197 Y59.450 E1.35110
G1 X28.191 Y59.875 E1.37463
G1 X28.151 Y60.193 E1.39238
G1 X28.059 Y60.555 E1.41306
G1 X27.922 Y60.902 E1.43371
G1 X27.742 Y61.230 E1.45436
G1 X27.488 Y61.570 E1.47788
G1 X27.268 Y61.804 E1.49564
G1 X26.981 Y62.042 E1.51629
G1 X26.666 Y62.243 E1.53696
G1 X26.376 Y62.380 E1.55472
G1 X25.974 Y62.518 E1.57825
G1 X25.607 Y62.588 E1.59889
G1 X25.235 Y62.612 E1.61954
G1 X24.862 Y62.589 E1.64022
G1 X24.496 Y62.519 E1.66085
G1 X24.141 Y62.404 E1.68150
G1 X23.803 Y62.246 E1.70215
G1 X23.488 Y62.046 E1.72280
G1 X23.055 Y61.689 E1.75388
G1 X22.724 Y61.235 E1.78493
G1 X22.544 Y60.908 E1.80558
G1 X22.406 Y60.561 E1.82626
G1 X22.313 Y60.200 E1.84689
G1 X22.266 Y59.830 E1.86755
G1 X22.265 Y59.457 E1.88821
G1 X22.312 Y59.086 E1.90889
G1 X22.404 Y58.724 E1.92953
G1 X22.541 Y58.377 E1.95019
G1 X22.721 Y58.050 E1.97083
G1 X22.940 Y57.748 E1.99148
G1 X23.195 Y57.476 E2.01213
G1 X23.427 Y57.283 E2.02882
G1 X23.747 Y57.639 F7800.000
G1 X24.029 Y57.457 F540.000 E2.04736
G1 X24.311 Y57.324 E2.06467
G1 X24.609 Y57.227 E2.08200
G1 X24.916 Y57.168 E2.09932
G1 X25.229 Y57.148 E2.11664
G1 X25.541 Y57.167 E2.13396
G1 X25.849 Y57.225 E2.15129
G1 X26.146 Y57.322 E2.16860
G1 X26.430 Y57.455 E2.18592
G1 X26.694 Y57.622 E2.20324
G1 X26.936 Y57.821 E2.22056
G1 X27.150 Y58.049 E2.23789
G1 X27.334 Y58.302 E2.25521
G1 X27.485 Y58.576 E2.27253
G1 X27.601 Y58.867 E2.28985
G1 X27.679 Y59.170 E2.30717
G1 X27.719 Y59.481 E2.32449
G1 X27.716 Y59.816 E2.34303
G1 X27.680 Y60.104 E2.35912
G1 X27.603 Y60.408 E2.37645
G1 X27.488 Y60.699 E2.39377
G1 X27.337 Y60.973 E2.41110
G1 X27.138 Y61.243 E2.42963
G1 X26.940 Y61.455 E2.44573
G1 X26.699 Y61.655 E2.46304
G1 X26.435 Y61.823 E2.48037
G1 X26.171 Y61.947 E2.49647
G1 X25.854 Y62.053 E2.51501
G1 X25.547 Y62.112 E2.53232
G1 X25.234 Y62.132 E2.54964
G1 X24.922 Y62.113 E2.56697
G1 X24.614 Y62.055 E2.58429
G1 X24.317 Y61.958 E2.60161
G1 X24.033 Y61.825 E2.61893
G1 X23.769 Y61.658 E2.63625
G1 X23.527 Y61.459 E2.65357
G1 X23.313 Y61.231 E2.67090
G1 X23.129 Y60.978 E2.68821
G1 X22.978 Y60.704 E2.70553
G1 X22.862 Y60.413 E2.72287
G1 X22.784 Y60.110 E2.74018
G1 X22.744 Y59.799 E2.75750
G1 X22.744 Y59.486 E2.77482
G1 X22.783 Y59.175 E2.79215
G1 X22.860 Y58.872 E2.80947
G1 X22.975 Y58.581 E2.82679
G1 X23.126 Y58.307 E2.84411
G1 X23.309 Y58.053 E2.86143
G1 X23.523 Y57.825 E2.87875
G1 X23.692 Y57.685 E2.89088
G1 X23.717 Y57.306 F7800.000
G1 F1800.000 E1.89088
G92 E0
G1 X23.319 Y57.608 F7800.000
G1 X22.447 Y59.468
G1 X23.084 Y61.421
G1 X26.612 Y64.492
G1 X27.484 Y62.632
G1 X27.930 Y62.649
G1 F1800.000 E1.00000
G1 X28.194 Y62.481 F540.000 E1.01731
G1 X28.477 Y62.348 E1.03464
G1 X28.774 Y62.251 E1.05196
G1 X29.082 Y62.192 E1.06928
G1 X29.394 Y62.172 E1.08660
G1 X29.706 Y62.191 E1.10392
G1 X30.014 Y62.249 E1.12124
G1 X30.291 Y62.339 E1.13734
G1 X30.595 Y62.479 E1.15588
G1 X30.859 Y62.646 E1.17320
G1 X31.084 Y62.831 E1.18930
G1 X31.315 Y63.073 E1.20784
G1 X31.499 Y63.326 E1.22515
G1 X31.651 Y63.600 E1.24248
G1 X31.766 Y63.891 E1.25979
G1 X31.844 Y64.194 E1.27711
G1 X31.884 Y64.527 E1.29565
G1 X31.884 Y64.818 E1.31176
G1 X31.845 Y65.128 E1.32907
G1 X31.768 Y65.431 E1.34640
G1 X31.653 Y65.723 E1.36372
G1 X31.502 Y65.997 E1.38104
G1 X31.319 Y66.250 E1.39836
G1 X31.105 Y66.479 E1.41568
G1 X30.864 Y66.679 E1.43301
G1 X30.600 Y66.846 E1.45032
G1 X30.317 Y66.980 E1.46764
G1 X30.019 Y67.077 E1.48497
G1 X29.712 Y67.136 E1.50229
G1 X29.399 Y67.156 E1.51961
G1 X29.087 Y67.137 E1.53693
G1 X28.780 Y67.079 E1.55425
G1 X28.482 Y66.982 E1.57157
G1 X28.198 Y66.849 E1.58889
G1 X27.934 Y66.682 E1.60621
G1 X27.710 Y66.497 E1.62232
G1 X27.478 Y66.254 E1.64086
G1 X27.294 Y66.002 E1.65817
G1 X27.143 Y65.727 E1.67550
G1 X27.027 Y65.437 E1.69281
G1 X26.949 Y65.134 E1.71013
G1 X26.909 Y64.823 E1.72745
G1 X26.909 Y64.510 E1.74478
G1 X26.948 Y64.199 E1.76211
G1 X27.026 Y63.896 E1.77942
G1 X27.140 Y63.605 E1.79674
G1 X27.291 Y63.331 E1.81406
G1 X27.475 Y63.077 E1.83138
G1 X27.689 Y62.849 E1.84871
G1 X27.874 Y62.695 E1.86206
G1 X27.903 Y62.337 F7800.000
G1 F1800.000 E0.86206
G92 E0
G1 X27.484 Y62.632 F7800.000
G1 X29.394 Y61.873
G1 X31.327 Y62.640
G1 X32.189 Y64.820
G1 X31.913 Y67.360
G1 X32.116 Y67.578
G1 F1800.000 E1.00000
G1 X32.363 Y67.375 F540.000 E1.01768
G1 X32.615 Y67.217 E1.03414
G1 X32.923 Y67.070 E1.05304
G1 X33.227 Y66.973 E1.07072
G1 X33.541 Y66.914 E1.08839
G1 X33.860 Y66.895 E1.10608
G1 X34.179 Y66.917 E1.12377
G1 X34.493 Y66.978 E1.14145
G1 X34.796 Y67.078 E1.15913
G1 X35.085 Y67.215 E1.17681
G1 X35.354 Y67.387 E1.19449
G1 X35.599 Y67.592 E1.21217
G1 X35.817 Y67.825 E1.22986
G1 X36.004 Y68.085 E1.24754
G1 X36.157 Y68.365 E1.26522
G1 X36.273 Y68.663 E1.28290
G1 X36.354 Y68.995 E1.30180
G1 X36.390 Y69.290 E1.31826
G1 X36.389 Y69.609 E1.33594
G1 X36.348 Y69.926 E1.35363
G1 X36.267 Y70.235 E1.37130
G1 X36.148 Y70.532 E1.38898
G1 X35.980 Y70.829 E1.40789
G1 X35.804 Y71.069 E1.42434
G1 X35.585 Y71.301 E1.44202
G1 X35.338 Y71.504 E1.45970
G1 X35.086 Y71.662 E1.47615
G1 X34.778 Y71.809 E1.49506
G1 X34.474 Y71.906 E1.51274
G1 X34.160 Y71.965 E1.53041
G1 X33.841 Y71.984 E1.54810
G1 X33.522 Y71.962 E1.56578
G1 X33.208 Y71.901 E1.58346
G1 X32.905 Y71.801 E1.60115
G1 X32.616 Y71.664 E1.61882
G1 X32.347 Y71.492 E1.63651
G1 X32.102 Y71.287 E1.65419
G1 X31.884 Y71.054 E1.67188
G1 X31.697 Y70.794 E1.68955
G1 X31.544 Y70.514 E1.70724
G1 X31.428 Y70.216 E1.72492
G1 X31.349 Y69.907 E1.74260
G1 X31.311 Y69.589 E1.76029
G1 X31.312 Y69.270 E1.77797
G1 X31.353 Y68.953 E1.79565
G1 X31.434 Y68.644 E1.81333
G1 X31.553 Y68.347 E1.83101
G1 X31.708 Y68.068 E1.84869
G1 X31.896 Y67.810 E1.86637
G1 X32.067 Y67.630 E1.88009
G1 X32.051 Y67.265 F7800.000
G1 F1800.000 E0.88009
G92 E0
G1 X31.913 Y67.360 F7800.000
G1 X33.861 Y66.597
G1 X35.804 Y67.375
G1 X36.688 Y69.272
G1 X36.724 Y72.416
G1 X36.940 Y72.621
G1 F1800.000 E1.00000
G1 X37.197 Y72.381 F540.000 E1.01942
G1 X37.481 Y72.176 E1.03885
G1 X37.789 Y72.008 E1.05827
G1 X38.095 Y71.888 E1.07641
G1 X38.456 Y71.793 E1.09710
G1 X38.805 Y71.750 E1.11653
G1 X39.156 Y71.751 E1.13595
G1 X39.504 Y71.796 E1.15537
G1 X39.843 Y71.884 E1.17480
G1 X40.169 Y72.014 E1.19421
G1 X40.476 Y72.184 E1.21364
G1 X40.760 Y72.392 E1.23306
G1 X41.015 Y72.632 E1.25248
G1 X41.238 Y72.904 E1.27191
G1 X41.425 Y73.200 E1.29133
G1 X41.573 Y73.518 E1.31075
G1 X41.681 Y73.852 E1.33017
G1 X41.746 Y74.197 E1.34959
G1 X41.767 Y74.548 E1.36902
G1 X41.744 Y74.898 E1.38845
G1 X41.677 Y75.242 E1.40786
G1 X41.567 Y75.576 E1.42728
G1 X41.405 Y75.912 E1.44798
G1 X41.228 Y76.189 E1.46612
G1 X41.004 Y76.459 E1.48555
G1 X40.747 Y76.698 E1.50497
G1 X40.463 Y76.904 E1.52439
G1 X40.155 Y77.072 E1.54381
G1 X39.828 Y77.200 E1.56323
G1 X39.488 Y77.286 E1.58266
G1 X39.139 Y77.329 E1.60208
G1 X38.788 Y77.328 E1.62150
G1 X38.463 Y77.286 E1.63965
G1 X38.101 Y77.195 E1.66034
G1 X37.775 Y77.065 E1.67976
G1 X37.488 Y76.906 E1.69791
G1 X37.184 Y76.688 E1.71860
G1 X36.929 Y76.447 E1.73802
G1 X36.706 Y76.176 E1.75744
G1 X36.519 Y75.879 E1.77687
G1 X36.364 Y75.539 E1.79755
G1 X36.263 Y75.227 E1.81570
G1 X36.198 Y74.882 E1.83512
G1 X36.177 Y74.532 E1.85455
G1 X36.200 Y74.181 E1.87397
G1 X36.267 Y73.837 E1.89339
G1 X36.377 Y73.503 E1.91281
G1 X36.527 Y73.186 E1.93224
G1 X36.716 Y72.890 E1.95166
G1 X36.894 Y72.676 E1.96711
G1 X36.847 Y72.282 F7800.000
G1 F1800.000 E0.96711
G92 E0
G1 X36.724 Y72.416 F7800.000
G1 X38.803 Y71.445
G1 X41.226 Y72.412
G1 X42.065 Y74.549
G1 X42.752 Y77.256
G1 X42.620 Y77.798
G1 F1800.000 E1.00000
G1 X42.934 Y77.500 F540.000 E1.02393
G1 X43.283 Y77.244 E1.04787
G1 X43.661 Y77.034 E1.07180
G1 X44.062 Y76.873 E1.09573
G1 X44.480 Y76.763 E1.11967
G1 X44.909 Y76.707 E1.14360
G1 X45.342 Y76.705 E1.16754
G1 X45.746 Y76.754 E1.19008
G1 X46.190 Y76.862 E1.21539
G1 X46.593 Y77.019 E1.23933
G1 X46.973 Y77.226 E1.26326
G1 X47.324 Y77.478 E1.28719
G1 X47.641 Y77.773 E1.31113
G1 X47.918 Y78.104 E1.33506
G1 X48.152 Y78.469 E1.35900
G1 X48.338 Y78.859 E1.38293
G1 X48.474 Y79.270 E1.40687
G1 X48.557 Y79.694 E1.43080
G1 X48.586 Y80.125 E1.45473
G1 X48.561 Y80.557 E1.47866
G1 X48.482 Y80.982 E1.50260
G1 X48.351 Y81.394 E1.52653
G1 X48.168 Y81.787 E1.55047
G1 X47.938 Y82.153 E1.57440
G1 X47.665 Y82.487 E1.59833
G1 X47.351 Y82.785 E1.62227
G1 X47.002 Y83.041 E1.64620
G1 X46.624 Y83.251 E1.67013
G1 X46.223 Y83.412 E1.69407
G1 X45.805 Y83.522 E1.71800
G1 X45.376 Y83.578 E1.74194
G1 X44.943 Y83.580 E1.76587
G1 X44.514 Y83.528 E1.78980
G1 X44.095 Y83.423 E1.81374
G1 X43.692 Y83.266 E1.83768
G1 X43.312 Y83.059 E1.86160
G1 X42.961 Y82.807 E1.88554
G1 X42.644 Y82.512 E1.90947
G1 X42.367 Y82.180 E1.93341
G1 X42.133 Y81.816 E1.95734
G1 X41.947 Y81.426 E1.98128
G1 X41.811 Y81.015 E2.00521
G1 X41.728 Y80.591 E2.02914
G1 X41.699 Y80.160 E2.05308
G1 X41.724 Y79.728 E2.07701
G1 X41.803 Y79.303 E2.10094
G1 X41.934 Y78.891 E2.12488
G1 X42.117 Y78.498 E2.14881
G1 X42.346 Y78.132 E2.17274
G1 X42.575 Y77.853 E2.19271
G1 X42.502 Y77.382 F7800.000
G1 F1800.000 E1.19271
G92 E0
G1 X42.752 Y77.256 F7800.000
G1 X45.799 Y76.453
G1 X51.272 Y78.582
G1 X50.225 Y82.735
G1 X50.021 Y83.368
G1 F1800.000 E1.00000
G1 X50.424 Y82.957 F540.000 E1.03189
G1 X50.876 Y82.599 E1.06377
G1 X51.369 Y82.301 E1.09566
G1 X51.895 Y82.066 E1.12755
G1 X52.419 Y81.908 E1.15785
G1 X53.015 Y81.804 E1.19131
G1 X53.591 Y81.780 E1.22320
G1 X54.165 Y81.829 E1.25509
G1 X54.728 Y81.949 E1.28698
