; generated by Slic3r 0.9.9 on 2015-06-03 at 09:02:56

; layer_height = 0.25
; perimeters = 3
; top_solid_layers = 5
; bottom_solid_layers = 3
; fill_density = 0.5
; perimeter_speed = 30
; infill_speed = 60
; travel_speed = 130
; nozzle_diameter = 0.4
; filament_diameter = 1.70
; extrusion_multiplier = 1.05
; perimeters extrusion width = 0.53mm
; infill extrusion width = 0.53mm
; solid infill extrusion width = 0.53mm
; top infill extrusion width = 0.53mm
; first layer extrusion width = 0.50mm

G21 ; set units to millimeters
M107
M190 S70 ; wait for bed temperature to be reached
M104 S205 ; set temperature
G28 ; home all axes
G1 Z5 F5000 ; lift nozzle
M109 S205 ; wait for temperature to be reached
G90 ; use absolute coordinates
G92 E0
M82 ; use absolute distances for extrusion
G1 F1800.000 E-1.00000
G92 E0
G1 Z0.250 F7800.000
G1 X50.189 Y54.390
G1 F1800.000 E1.00000
G1 X50.819 Y53.870 F540.000 E1.04521
G1 X51.269 Y53.570 E1.07514
G1 X51.749 Y53.300 E1.10562
G1 X52.499 Y52.970 E1.15097
G1 X53.019 Y52.800 E1.18124
G1 X53.819 Y52.630 E1.22651
G1 X54.359 Y52.560 E1.25664
G1 X54.909 Y52.540 E1.28710
G1 X93.089 Y52.540 E3.40008
G1 X93.639 Y52.560 E3.43054
G1 X93.909 Y52.590 E3.44557
G1 X94.449 Y52.680 E3.47587
G1 X94.979 Y52.800 E3.50594
G1 X95.749 Y53.070 E3.55110
G1 X96.249 Y53.300 E3.58156
G1 X96.729 Y53.570 E3.61204
G1 X97.179 Y53.870 E3.64197
G1 X97.609 Y54.210 E3.67231
G1 X98.009 Y54.580 E3.70246
G1 X98.379 Y54.980 E3.73262
G1 X98.719 Y55.410 E3.76296
G1 X99.019 Y55.860 E3.79289
G1 X99.289 Y56.340 E3.82337
G1 X99.519 Y56.840 E3.85382
G1 X99.789 Y57.610 E3.89898
G1 X99.909 Y58.140 E3.92906
G1 X99.999 Y58.680 E3.95935
G1 X100.029 Y58.950 E3.97439
G1 X100.049 Y59.500 E4.00485
G1 X100.049 Y61.500 E4.11553
G1 X99.969 Y62.550 E4.17381
G1 X97.379 Y79.550 E5.12549
G1 X97.209 Y80.350 E5.17075
G1 X97.039 Y80.870 E5.20103
G1 X96.829 Y81.380 E5.23155
G1 X96.449 Y82.110 E5.27710
G1 X95.979 Y82.790 E5.32285
G1 X95.439 Y83.400 E5.36793
G1 X95.029 Y83.780 E5.39887
G1 X94.379 Y84.280 E5.44426
G1 X93.669 Y84.690 E5.48963
G1 X92.919 Y85.020 E5.53498
G1 X92.129 Y85.260 E5.58067
G1 X91.589 Y85.370 E5.61117
G1 X91.049 Y85.440 E5.64130
G1 X90.499 Y85.460 E5.67176
G1 X57.499 Y85.460 E7.49807
G1 X56.949 Y85.440 E7.52853
G1 X56.679 Y85.410 E7.54356
G1 X56.139 Y85.320 E7.57386
G1 X55.599 Y85.190 E7.60460
G1 X54.829 Y84.920 E7.64976
G1 X54.329 Y84.690 E7.68021
G1 X53.849 Y84.420 E7.71069
G1 X53.619 Y84.280 E7.72559
G1 X52.969 Y83.780 E7.77098
G1 X52.559 Y83.400 E7.80192
G1 X52.019 Y82.790 E7.84700
G1 X51.549 Y82.110 E7.89275
G1 X51.289 Y81.630 E7.92296
G1 X51.059 Y81.130 E7.95342
G1 X50.869 Y80.620 E7.98354
G1 X50.789 Y80.350 E7.99912
G1 X50.619 Y79.550 E8.04439
G1 X48.029 Y62.550 E8.99607
G1 X47.949 Y61.500 E9.05435
G1 X47.949 Y59.500 E9.16503
G1 X47.969 Y58.950 E9.19549
G1 X48.039 Y58.410 E9.22562
G1 X48.209 Y57.610 E9.27089
G1 X48.479 Y56.840 E9.31605
G1 X48.709 Y56.340 E9.34650
G1 X48.979 Y55.860 E9.37698
G1 X49.279 Y55.410 E9.40691
G1 X49.619 Y54.980 E9.43725
G1 X50.136 Y54.439 E9.47868
G1 X50.519 Y54.730 F7800.000
G1 X50.929 Y54.390 F540.000 E9.50816
G1 X51.589 Y53.930 E9.55268
G1 X52.059 Y53.680 E9.58215
G1 X52.549 Y53.460 E9.61187
G1 X53.059 Y53.290 E9.64162
G1 X53.839 Y53.110 E9.68592
G1 X54.379 Y53.040 E9.71606
G1 X54.909 Y53.020 E9.74541
G1 X93.089 Y53.020 E11.85839
G1 X93.619 Y53.040 E11.88775
G1 X93.889 Y53.070 E11.90278
G1 X94.419 Y53.160 E11.93253
G1 X94.939 Y53.290 E11.96220
G1 X95.449 Y53.460 E11.99195
G1 X95.939 Y53.680 E12.02167
G1 X96.409 Y53.930 E12.05113
G1 X97.069 Y54.390 E12.09566
G1 X97.479 Y54.730 E12.12513
G1 X97.859 Y55.110 E12.15488
G1 X98.029 Y55.310 E12.16940
G1 X98.359 Y55.740 E12.19940
G1 X98.659 Y56.180 E12.22887
G1 X98.909 Y56.650 E12.25833
G1 X99.129 Y57.140 E12.28806
G1 X99.299 Y57.650 E12.31781
G1 X99.429 Y58.170 E12.34747
G1 X99.549 Y58.970 E12.39224
G1 X99.569 Y59.500 E12.42160
G1 X99.569 Y61.500 E12.53228
G1 X99.489 Y62.480 E12.58670
G1 X96.859 Y79.730 E13.55239
G1 X96.739 Y80.250 E13.58192
G1 X96.579 Y80.750 E13.61098
G1 X96.259 Y81.470 E13.65458
G1 X95.999 Y81.920 E13.68334
G1 X95.859 Y82.140 E13.69778
G1 X95.539 Y82.570 E13.72744
G1 X95.009 Y83.150 E13.77092
G1 X94.419 Y83.660 E13.81408
G1 X93.759 Y84.100 E13.85798
G1 X93.529 Y84.230 E13.87260
G1 X93.059 Y84.450 E13.90132
G1 X92.569 Y84.640 E13.93041
G1 X91.799 Y84.850 E13.97458
G1 X91.019 Y84.960 E14.01817
G1 X90.499 Y84.980 E14.04697
G1 X57.499 Y84.980 E15.87328
G1 X56.979 Y84.960 E15.90208
G1 X56.709 Y84.930 E15.91711
G1 X56.199 Y84.850 E15.94568
G1 X55.939 Y84.790 E15.96045
G1 X55.429 Y84.640 E15.98987
G1 X54.939 Y84.450 E16.01895
G1 X54.469 Y84.230 E16.04767
G1 X54.239 Y84.100 E16.06229
G1 X53.799 Y83.820 E16.09116
G1 X53.179 Y83.330 E16.13489
G1 X52.799 Y82.960 E16.16425
G1 X52.459 Y82.570 E16.19288
G1 X52.139 Y82.140 E16.22254
G1 X51.739 Y81.470 E16.26573
G1 X51.419 Y80.750 E16.30933
G1 X51.259 Y80.250 E16.33839
G1 X51.099 Y79.480 E16.38191
G1 X48.509 Y62.480 E17.33359
G1 X48.429 Y61.500 E17.38801
G1 X48.429 Y59.500 E17.49869
G1 X48.449 Y58.970 E17.52805
G1 X48.479 Y58.700 E17.54308
G1 X48.629 Y57.910 E17.58758
G1 X48.869 Y57.140 E17.63222
G1 X49.089 Y56.650 E17.66194
G1 X49.339 Y56.180 E17.69140
G1 X49.799 Y55.520 E17.73593
G1 X50.139 Y55.110 E17.76540
G1 X50.468 Y54.781 E17.79117
G1 F1800.000 E16.79117
G92 E0
G1 X58.697 Y60.696 F7800.000
G1 F1800.000 E1.00000
G1 X89.305 Y60.696 F540.000 E2.69389
G1 X89.305 Y77.304 E3.61298
G1 X58.697 Y77.304 E5.30687
G1 X58.697 Y60.768 E6.22199
G1 X58.219 Y60.782 F7800.000
G1 X55.635 Y60.782 F540.000 E6.36499
G1 X55.635 Y60.218 E6.39622
G1 X92.371 Y60.218 E8.42928
G1 X92.371 Y60.782 E8.46052
G1 X89.783 Y60.782 E8.60373
G1 X89.783 Y77.782 E9.54455
G1 X58.219 Y77.782 E11.29141
G1 X58.219 Y60.854 E12.22826
G1 X57.740 Y61.261 F7800.000
G1 X55.156 Y61.261 F378.000 E12.37126
G1 X55.156 Y59.739 E12.45546
G1 X92.850 Y59.739 E14.54149
G1 X92.850 Y61.261 E14.62569
G1 X90.262 Y61.261 E14.76890
G1 X90.262 Y78.261 E15.70972
G1 X57.740 Y78.261 E17.50955
G1 X57.740 Y61.333 E18.44640
G1 X57.740 Y60.782 F7800.000
G1 F1800.000 E17.44640
G92 E0
G1 X58.001 Y61.000 F7800.000
G1 X58.001 Y78.000
G1 X59.045 Y76.957
G1 F1800.000 E1.00000
G1 X59.044 Y76.273 F1080.000 E1.03827
G1 X59.728 Y76.957 E1.09239
G1 X60.412 Y76.957 E1.13065
G1 X59.044 Y75.589 E1.23887
G1 X59.044 Y74.905 E1.27713
G1 X61.096 Y76.957 E1.43946
G1 X61.780 Y76.957 E1.47772
G1 X59.044 Y74.221 E1.69415
G1 X59.044 Y73.537 E1.73241
G1 X62.464 Y76.957 E2.00295
G1 X63.148 Y76.957 E2.04121
G1 X59.044 Y72.853 E2.36585
G1 X59.044 Y72.169 E2.40411
G1 X63.832 Y76.957 E2.78286
G1 X64.516 Y76.957 E2.82112
G1 X59.044 Y71.485 E3.25397
G1 X59.044 Y70.801 E3.29223
G1 X65.200 Y76.957 E3.77918
G1 X65.884 Y76.957 E3.81744
G1 X59.044 Y70.117 E4.35851
G1 X59.044 Y69.433 E4.39676
G1 X66.568 Y76.957 E4.99193
G1 X67.252 Y76.957 E5.03019
G1 X59.044 Y68.749 E5.67946
G1 X59.044 Y68.065 E5.71772
G1 X67.936 Y76.957 E6.42109
G1 X68.620 Y76.957 E6.45935
G1 X59.044 Y67.381 E7.21683
G1 X59.044 Y66.697 E7.25509
G1 X69.304 Y76.957 E8.06668
G1 X69.988 Y76.957 E8.10494
G1 X59.044 Y66.013 E8.97063
G1 X59.044 Y65.329 E9.00888
G1 X70.672 Y76.957 E9.92868
G1 X71.356 Y76.957 E9.96694
G1 X59.044 Y64.645 E10.94084
G1 X59.044 Y63.961 E10.97910
G1 X72.040 Y76.957 E12.00710
G1 X72.724 Y76.957 E12.04536
G1 X59.044 Y63.277 E13.12747
G1 X59.044 Y62.593 E13.16572
G1 X73.408 Y76.957 E14.30194
G1 X74.092 Y76.957 E14.34020
G1 X59.044 Y61.909 E15.53052
G1 X59.044 Y61.225 E15.56877
G1 X74.776 Y76.957 E16.81320
G1 X75.460 Y76.957 E16.85145
G1 X59.546 Y61.043 E18.11026
G1 X60.230 Y61.043 E18.14852
G1 X76.144 Y76.957 E19.40732
G1 X76.828 Y76.957 E19.44558
G1 X60.914 Y61.043 E20.70438
G1 X61.598 Y61.043 E20.74264
G1 X77.512 Y76.957 E22.00145
G1 X78.196 Y76.957 E22.03971
G1 X62.282 Y61.043 E23.29851
G1 X62.966 Y61.043 E23.33677
G1 X78.880 Y76.957 E24.59557
G1 X79.564 Y76.957 E24.63383
G1 X63.650 Y61.043 E25.89264
G1 X64.334 Y61.043 E25.93089
G1 X80.248 Y76.957 E27.18970
G1 X80.932 Y76.957 E27.22796
G1 X65.018 Y61.043 E28.48676
G1 X65.702 Y61.043 E28.52502
G1 X81.616 Y76.957 E29.78382
G1 X82.300 Y76.957 E29.82208
G1 X66.386 Y61.043 E31.08089
G1 X67.070 Y61.043 E31.11914
G1 X82.984 Y76.957 E32.37795
G1 X83.668 Y76.957 E32.41621
G1 X67.754 Y61.043 E33.67501
G1 X68.438 Y61.043 E33.71327
G1 X84.352 Y76.957 E34.97207
G1 X85.036 Y76.957 E35.01033
G1 X69.122 Y61.043 E36.26914
G1 X69.806 Y61.043 E36.30739
G1 X85.720 Y76.957 E37.56620
G1 X86.404 Y76.957 E37.60446
G1 X70.490 Y61.043 E38.86326
G1 X71.174 Y61.043 E38.90152
G1 X87.088 Y76.957 E40.16032
G1 X87.772 Y76.957 E40.19858
G1 X71.858 Y61.043 E41.45739
G1 X72.542 Y61.043 E41.49564
G1 X88.456 Y76.957 E42.75445
G1 X88.958 Y76.775 E42.78432
G1 X73.226 Y61.043 E44.02874
G1 X73.910 Y61.043 E44.06699
G1 X88.958 Y76.091 E45.25731
G1 X88.958 Y75.407 E45.29557
G1 X74.594 Y61.043 E46.43177
G1 X75.278 Y61.043 E46.47003
G1 X88.958 Y74.723 E47.55213
G1 X88.958 Y74.039 E47.59039
G1 X75.962 Y61.043 E48.61839
G1 X76.646 Y61.043 E48.65665
G1 X88.958 Y73.355 E49.63054
G1 X88.958 Y72.671 E49.66880
G1 X77.330 Y61.043 E50.58859
G1 X78.014 Y61.043 E50.62685
G1 X88.958 Y71.987 E51.49253
G1 X88.958 Y71.303 E51.53079
G1 X78.698 Y61.043 E52.34237
G1 X79.382 Y61.043 E52.38063
G1 X88.958 Y70.619 E53.13810
G1 X88.958 Y69.935 E53.17636
G1 X80.066 Y61.043 E53.87973
G1 X80.750 Y61.043 E53.91799
G1 X88.958 Y69.251 E54.56726
G1 X88.958 Y68.567 E54.60551
G1 X81.434 Y61.043 E55.20067
G1 X82.118 Y61.043 E55.23893
G1 X88.958 Y67.883 E55.77999
G1 X88.958 Y67.199 E55.81825
G1 X82.802 Y61.043 E56.30520
G1 X83.486 Y61.043 E56.34346
G1 X88.958 Y66.515 E56.77630
G1 X88.958 Y65.831 E56.81456
G1 X84.170 Y61.043 E57.19330
G1 X84.854 Y61.043 E57.23156
G1 X88.958 Y65.147 E57.55620
G1 X88.958 Y64.463 E57.59446
G1 X85.538 Y61.043 E57.86499
G1 X86.222 Y61.043 E57.90325
G1 X88.958 Y63.779 E58.11968
G1 X88.958 Y63.095 E58.15793
G1 X86.906 Y61.043 E58.32026
G1 X87.590 Y61.043 E58.35852
G1 X88.958 Y62.411 E58.46673
G1 X88.958 Y61.727 E58.50499
G1 X88.274 Y61.043 E58.55911
G1 X88.958 Y61.043 E58.59737
M106 S227
G1 F1800.000 E57.59737
G92 E0
G1 Z0.500 F7800.000
G1 X89.244 Y60.757
G1 F1800.000 E1.00000
G1 X89.244 Y77.243 F1800.000 E1.95840
G1 X58.758 Y77.243 E3.73064
G1 X58.758 Y60.757 E4.68904
G1 X89.169 Y60.757 E6.45689
G1 X89.747 Y60.254 F7800.000
G1 X89.747 Y77.746 F1800.000 E7.47373
G1 X58.255 Y77.746 E9.30441
G1 X58.255 Y60.254 E10.32125
G1 X89.672 Y60.254 E12.14754
G1 X90.250 Y61.249 F7800.000
G1 X90.250 Y78.249 F1260.000 E13.13578
G1 X57.752 Y78.249 E15.02490
G1 X57.752 Y61.249 E16.01313
G1 X55.001 Y61.249 E16.17310
G1 X55.001 Y59.751 E16.26014
G1 X93.011 Y59.751 E18.46975
G1 X93.011 Y61.249 E18.55679
G1 X90.325 Y61.249 E18.71293
G1 X89.747 Y61.249 F7800.000
G1 F1800.000 E17.71293
G92 E0
G1 X90.001 Y61.000 F7800.000
G1 X90.001 Y78.000
G1 X88.880 Y76.879
G1 F1800.000 E1.00000
G1 X88.169 Y76.879 F3600.000 E1.04137
G1 X88.880 Y76.168 E1.09988
G1 X88.880 Y75.456 E1.14124
G1 X87.458 Y76.879 E1.25825
G1 X86.746 Y76.879 E1.29961
G1 X88.880 Y74.745 E1.47511
G1 X88.880 Y74.034 E1.51647
G1 X86.035 Y76.879 E1.75046
G1 X85.324 Y76.879 E1.79182
G1 X88.880 Y73.323 E2.08430
G1 X88.880 Y72.612 E2.12566
G1 X84.613 Y76.879 E2.47664
G1 X83.902 Y76.879 E2.51800
G1 X88.880 Y71.901 E2.92747
G1 X88.880 Y71.189 E2.96884
G1 X83.191 Y76.879 E3.43680
G1 X82.479 Y76.879 E3.47816
G1 X88.880 Y70.478 E4.00462
G1 X88.880 Y69.767 E4.04598
G1 X81.768 Y76.879 E4.63093
G1 X81.057 Y76.879 E4.67229
G1 X88.880 Y69.056 E5.31574
G1 X88.880 Y68.345 E5.35710
G1 X80.346 Y76.879 E6.05904
G1 X79.635 Y76.879 E6.10040
G1 X88.880 Y67.633 E6.86083
G1 X88.880 Y66.922 E6.90220
G1 X78.923 Y76.879 E7.72112
G1 X78.212 Y76.879 E7.76248
G1 X88.880 Y66.211 E8.63990
G1 X88.880 Y65.500 E8.68126
G1 X77.501 Y76.879 E9.61718
G1 X76.790 Y76.879 E9.65854
G1 X88.880 Y64.789 E10.65295
G1 X88.880 Y64.078 E10.69431
G1 X76.079 Y76.879 E11.74721
G1 X75.367 Y76.879 E11.78857
G1 X88.880 Y63.366 E12.89996
G1 X88.880 Y62.655 E12.94132
G1 X74.656 Y76.879 E14.11121
G1 X73.945 Y76.879 E14.15257
G1 X88.880 Y61.944 E15.38095
G1 X88.880 Y61.233 E15.42232
G1 X73.234 Y76.879 E16.70919
G1 X72.523 Y76.879 E16.75055
G1 X88.281 Y61.121 E18.04662
G1 X87.570 Y61.121 E18.08798
G1 X71.812 Y76.879 E19.38406
G1 X71.100 Y76.879 E19.42542
G1 X86.858 Y61.121 E20.72149
G1 X86.147 Y61.121 E20.76285
G1 X70.389 Y76.879 E22.05892
G1 X69.678 Y76.879 E22.10028
G1 X85.436 Y61.121 E23.39636
G1 X84.725 Y61.121 E23.43772
G1 X68.967 Y76.879 E24.73379
G1 X68.256 Y76.879 E24.77515
G1 X84.014 Y61.121 E26.07122
G1 X83.303 Y61.121 E26.11259
G1 X67.544 Y76.879 E27.40866
G1 X66.833 Y76.879 E27.45002
G1 X82.591 Y61.121 E28.74609
G1 X81.880 Y61.121 E28.78745
G1 X66.122 Y76.879 E30.08352
G1 X65.411 Y76.879 E30.12489
G1 X81.169 Y61.121 E31.42096
G1 X80.458 Y61.121 E31.46232
G1 X64.700 Y76.879 E32.75839
G1 X63.988 Y76.879 E32.79975
G1 X79.747 Y61.121 E34.09582
G1 X79.035 Y61.121 E34.13719
G1 X63.277 Y76.879 E35.43326
G1 X62.566 Y76.879 E35.47462
G1 X78.324 Y61.121 E36.77069
G1 X77.613 Y61.121 E36.81205
G1 X61.855 Y76.879 E38.10813
G1 X61.144 Y76.879 E38.14949
G1 X76.902 Y61.121 E39.44556
G1 X76.191 Y61.121 E39.48692
G1 X60.433 Y76.879 E40.78299
G1 X59.721 Y76.879 E40.82435
G1 X75.479 Y61.121 E42.12043
G1 X74.768 Y61.121 E42.16179
G1 X59.122 Y76.767 E43.44866
G1 X59.122 Y76.056 E43.49002
G1 X74.057 Y61.121 E44.71839
G1 X73.346 Y61.121 E44.75975
G1 X59.122 Y75.345 E45.92963
G1 X59.122 Y74.634 E45.97100
G1 X72.635 Y61.121 E47.08238
G1 X71.924 Y61.121 E47.12374
G1 X59.122 Y73.922 E48.17664
G1 X59.122 Y73.211 E48.21800
G1 X71.212 Y61.121 E49.21240
G1 X70.501 Y61.121 E49.25376
G1 X59.122 Y72.500 E50.18967
G1 X59.122 Y71.789 E50.23103
G1 X69.790 Y61.121 E51.10845
G1 X69.079 Y61.121 E51.14981
G1 X59.122 Y71.078 E51.96873
G1 X59.122 Y70.366 E52.01009
G1 X68.368 Y61.121 E52.77051
G1 X67.656 Y61.121 E52.81188
G1 X59.122 Y69.655 E53.51381
G1 X59.122 Y68.944 E53.55517
G1 X66.945 Y61.121 E54.19861
G1 X66.234 Y61.121 E54.23997
G1 X59.122 Y68.233 E54.82492
G1 X59.122 Y67.522 E54.86628
G1 X65.523 Y61.121 E55.39273
G1 X64.812 Y61.121 E55.43409
G1 X59.122 Y66.811 E55.90205
G1 X59.122 Y66.099 E55.94341
G1 X64.101 Y61.121 E56.35288
G1 X63.389 Y61.121 E56.39424
G1 X59.122 Y65.388 E56.74521
G1 X59.122 Y64.677 E56.78657
G1 X62.678 Y61.121 E57.07905
G1 X61.967 Y61.121 E57.12041
G1 X59.122 Y63.966 E57.35439
G1 X59.122 Y63.255 E57.39576
G1 X61.256 Y61.121 E57.57125
G1 X60.545 Y61.121 E57.61261
G1 X59.122 Y62.543 E57.72961
G1 X59.122 Y61.832 E57.77097
G1 X59.833 Y61.121 E57.82947
G1 X59.122 Y61.121 E57.87084
G1 F1800.000 E56.87084
G92 E0
G1 X58.001 Y61.000 F7800.000
G1 X92.763 Y61.000
G1 X92.362 Y60.599
G1 F1800.000 E1.00000
G1 X91.479 Y60.401 F1200.000 E1.08012
G1 X91.280 Y60.599 E1.10500
G1 X90.396 Y60.401 E1.18511
G1 F1800.000 E0.18511
G92 E0
G1 X90.001 Y61.000 F7800.000
G1 X58.001 Y61.000
G1 X57.606 Y60.599
G1 F1800.000 E1.00000
G1 X56.727 Y60.401 F1200.000 E1.07934
G1 X56.528 Y60.599 E1.10411
G1 X55.650 Y60.401 E1.18345
M106 S227
G1 F1800.000 E0.18345
G92 E0
G1 Z0.750 F7800.000
G1 X55.090 Y60.000
G1 X58.001 Y61.000
G1 X58.758 Y60.757
G1 F1800.000 E1.00000
G1 X89.244 Y60.757 F1800.000 E2.77224
G1 X89.244 Y77.243 E3.73064
G1 X58.758 Y77.243 E5.50288
G1 X58.758 Y60.832 E6.45689
G1 X58.255 Y60.254 F7800.000
G1 X89.747 Y60.254 F1800.000 E8.28757
G1 X89.747 Y77.746 E9.30441
G1 X58.255 Y77.746 E11.13509
G1 X58.255 Y60.329 E12.14754
G1 X57.752 Y61.249 F7800.000
G1 X54.841 Y61.249 F1260.000 E12.31679
G1 X54.841 Y59.751 E12.40383
G1 X93.171 Y59.751 E14.63200
G1 X93.171 Y61.249 E14.71905
G1 X90.250 Y61.249 E14.88885
G1 X90.250 Y78.249 E15.87709
G1 X57.752 Y78.249 E17.76621
G1 X57.752 Y61.324 E18.75006
G1 X57.752 Y60.746 F7800.000
G1 F1800.000 E17.75006
G92 E0
G1 X58.001 Y61.000 F7800.000
G1 X58.001 Y78.000
G1 X59.122 Y76.879
G1 F1800.000 E1.00000
G1 X59.122 Y76.168 F3600.000 E1.04137
G1 X59.833 Y76.879 E1.09988
G1 X60.545 Y76.879 E1.14124
G1 X59.122 Y75.456 E1.25825
G1 X59.122 Y74.745 E1.29961
G1 X61.256 Y76.879 E1.47511
G1 X61.967 Y76.879 E1.51647
G1 X59.122 Y74.034 E1.75046
G1 X59.122 Y73.323 E1.79182
G1 X62.678 Y76.879 E2.08430
G1 X63.389 Y76.879 E2.12566
