; generated by Slic3r 0.9.9 on 2015-06-06 at 22:09:13

; layer_height = 0.25
; perimeters = 3
; top_solid_layers = 5
; bottom_solid_layers = 3
; fill_density = 0.5
; perimeter_speed = 30
; infill_speed = 60
; travel_speed = 130
; nozzle_diameter = 0.4
; filament_diameter = 1.70
; extrusion_multiplier = 1.05
; perimeters extrusion width = 0.53mm
; infill extrusion width = 0.53mm
; solid infill extrusion width = 0.53mm
; top infill extrusion width = 0.53mm
; first layer extrusion width = 0.50mm

G21 ; set units to millimeters
M107
M190 S70 ; wait for bed temperature to be reached
M104 S205 ; set temperature
G28 ; home all axes
G1 Z5 F5000 ; lift nozzle
M109 S205 ; wait for temperature to be reached
G90 ; use absolute coordinates
G92 E0
M82 ; use absolute distances for extrusion
G1 F1800.000 E-1.00000
G92 E0
G1 Z0.250 F7800.000
G1 X46.980 Y54.210
G1 F1800.000 E1.00000
G1 X47.410 Y53.870 F540.000 E1.03034
G1 X47.860 Y53.570 E1.06027
G1 X48.340 Y53.300 E1.09075
G1 X49.090 Y52.970 E1.13609
G1 X49.610 Y52.800 E1.16637
G1 X50.410 Y52.630 E1.21163
G1 X50.950 Y52.560 E1.24177
G1 X51.500 Y52.540 E1.27223
G1 X98.500 Y52.540 E3.87333
G1 X99.050 Y52.560 E3.90379
G1 X99.590 Y52.630 E3.93392
G1 X100.390 Y52.800 E3.97919
G1 X101.160 Y53.070 E4.02434
G1 X101.900 Y53.430 E4.06989
G1 X102.590 Y53.870 E4.11518
G1 X103.220 Y54.390 E4.16039
G1 X103.790 Y54.980 E4.20579
G1 X104.130 Y55.410 E4.23612
G1 X104.570 Y56.100 E4.28141
G1 X104.930 Y56.840 E4.32696
G1 X105.200 Y57.610 E4.37211
G1 X105.370 Y58.410 E4.41738
G1 X105.440 Y58.950 E4.44751
G1 X105.460 Y59.500 E4.47797
G1 X105.460 Y62.000 E4.61633
G1 X105.430 Y62.620 E4.65068
G1 X105.350 Y63.230 E4.68473
G1 X105.210 Y63.840 E4.71936
G1 X105.120 Y64.140 E4.73670
G1 X104.900 Y64.720 E4.77103
G1 X97.790 Y81.470 E5.77807
G1 X97.530 Y81.970 E5.80926
G1 X97.070 Y82.670 E5.85562
G1 X96.710 Y83.110 E5.88708
G1 X96.320 Y83.510 E5.91800
G1 X95.900 Y83.890 E5.94934
G1 X95.220 Y84.380 E5.99573
G1 X94.740 Y84.660 E6.02648
G1 X94.230 Y84.900 E6.05768
G1 X93.710 Y85.100 E6.08851
G1 X92.890 Y85.320 E6.13550
G1 X92.340 Y85.410 E6.16634
G1 X91.500 Y85.460 E6.21291
G1 X58.500 Y85.460 E8.03922
G1 X57.660 Y85.410 E8.08579
G1 X57.380 Y85.370 E8.10144
G1 X56.560 Y85.180 E8.14802
G1 X56.290 Y85.100 E8.16361
G1 X55.770 Y84.900 E8.19444
G1 X55.260 Y84.660 E8.22563
G1 X54.540 Y84.220 E8.27233
G1 X54.100 Y83.890 E8.30277
G1 X53.880 Y83.700 E8.31886
G1 X53.290 Y83.110 E8.36504
G1 X52.930 Y82.670 E8.39650
G1 X52.470 Y81.970 E8.44285
G1 X52.100 Y81.220 E8.48914
G1 X45.100 Y64.720 E9.48107
G1 X44.880 Y64.140 E9.51540
G1 X44.790 Y63.840 E9.53273
G1 X44.650 Y63.230 E9.56737
G1 X44.570 Y62.620 E9.60142
G1 X44.550 Y62.310 E9.61861
G1 X44.540 Y59.500 E9.77412
G1 X44.560 Y58.950 E9.80458
G1 X44.680 Y58.140 E9.84990
G1 X44.800 Y57.610 E9.87997
G1 X44.970 Y57.090 E9.91025
G1 X45.180 Y56.590 E9.94026
G1 X45.430 Y56.100 E9.97070
G1 X45.870 Y55.410 E10.01599
G1 X46.210 Y54.980 E10.04633
G1 X46.580 Y54.580 E10.07649
G1 X46.927 Y54.258 E10.10267
G1 X47.310 Y54.560 F7800.000
G1 X47.740 Y54.230 F540.000 E10.13267
G1 X48.180 Y53.930 E10.16214
G1 X48.650 Y53.680 E10.19160
G1 X49.140 Y53.460 E10.22133
G1 X49.650 Y53.290 E10.25108
G1 X50.430 Y53.110 E10.29538
G1 X50.970 Y53.040 E10.32552
G1 X51.500 Y53.020 E10.35487
G1 X98.500 Y53.020 E12.95597
G1 X99.030 Y53.040 E12.98532
G1 X99.570 Y53.110 E13.01546
G1 X100.350 Y53.290 E13.05976
G1 X100.860 Y53.460 E13.08951
G1 X101.350 Y53.680 E13.11924
G1 X101.820 Y53.930 E13.14870
G1 X102.260 Y54.230 E13.17817
G1 X102.890 Y54.730 E13.22268
G1 X103.270 Y55.110 E13.25243
G1 X103.770 Y55.740 E13.29694
G1 X104.070 Y56.180 E13.32641
G1 X104.200 Y56.420 E13.34152
G1 X104.540 Y57.140 E13.38558
G1 X104.710 Y57.650 E13.41533
G1 X104.890 Y58.430 E13.45963
G1 X104.960 Y58.970 E13.48977
G1 X104.980 Y59.500 E13.51912
G1 X104.980 Y62.000 E13.65748
G1 X104.950 Y62.580 E13.68962
G1 X104.880 Y63.150 E13.72140
G1 X104.670 Y63.990 E13.76932
G1 X104.460 Y64.530 E13.80139
G1 X97.460 Y81.030 E14.79332
G1 X97.230 Y81.520 E14.82327
G1 X96.960 Y81.990 E14.85327
G1 X96.650 Y82.430 E14.88306
G1 X96.300 Y82.850 E14.91332
G1 X95.920 Y83.230 E14.94306
G1 X95.300 Y83.750 E14.98784
G1 X95.080 Y83.900 E15.00258
G1 X94.850 Y84.050 E15.01777
G1 X94.130 Y84.420 E15.06257
G1 X93.620 Y84.620 E15.09289
G1 X93.110 Y84.780 E15.12247
G1 X92.840 Y84.840 E15.13778
G1 X92.040 Y84.960 E15.18255
G1 X91.500 Y84.980 E15.21245
G1 X58.500 Y84.980 E17.03876
G1 X57.960 Y84.960 E17.06867
G1 X57.420 Y84.890 E17.09880
G1 X56.890 Y84.780 E17.12876
G1 X56.120 Y84.530 E17.17356
G1 X55.630 Y84.310 E17.20329
G1 X55.150 Y84.050 E17.23350
G1 X54.700 Y83.750 E17.26343
G1 X54.280 Y83.410 E17.29333
G1 X53.700 Y82.850 E17.33795
G1 X53.350 Y82.430 E17.36821
G1 X52.900 Y81.760 E17.41288
G1 X52.540 Y81.030 E17.45792
G1 X45.540 Y64.530 E18.44985
G1 X45.330 Y63.990 E18.48192
G1 X45.120 Y63.150 E18.52984
G1 X45.050 Y62.580 E18.56162
G1 X45.020 Y62.000 E18.59376
G1 X45.020 Y59.500 E18.73212
G1 X45.040 Y58.970 E18.76147
G1 X45.160 Y58.170 E18.80624
G1 X45.290 Y57.650 E18.83590
G1 X45.460 Y57.140 E18.86565
G1 X45.680 Y56.650 E18.89538
G1 X45.930 Y56.180 E18.92484
G1 X46.230 Y55.740 E18.95431
G1 X46.560 Y55.310 E18.98431
G1 X46.730 Y55.110 E18.99884
G1 X47.255 Y54.606 E19.03911
G1 F1800.000 E18.03911
G92 E0
G1 X59.696 Y60.696 F7800.000
G1 F1800.000 E1.00000
G1 X90.304 Y60.696 F540.000 E2.69389
G1 X90.304 Y77.304 E3.61298
G1 X59.696 Y77.304 E5.30687
G1 X59.696 Y60.768 E6.22199
G1 X59.218 Y61.282 F7800.000
G1 X52.218 Y61.282 F540.000 E6.60939
G1 X52.218 Y60.218 E6.66829
G1 X97.782 Y60.218 E9.18994
G1 X97.782 Y61.282 E9.24885
G1 X90.782 Y61.282 E9.63625
G1 X90.782 Y77.782 E10.54940
G1 X59.218 Y77.782 E12.29626
G1 X59.218 Y61.354 E13.20544
G1 X58.739 Y61.761 F7800.000
G1 X51.739 Y61.761 F378.000 E13.59284
G1 X51.739 Y59.739 E13.70471
G1 X98.261 Y59.739 E16.27933
G1 X98.261 Y61.761 E16.39120
G1 X91.261 Y61.761 E16.77860
G1 X91.261 Y78.261 E17.69175
G1 X58.739 Y78.261 E19.49157
G1 X58.739 Y61.833 E20.40076
G1 X58.739 Y61.282 F7800.000
G1 F1800.000 E19.40076
G92 E0
G1 X59.000 Y61.500 F7800.000
G1 X59.000 Y78.000
G1 X60.043 Y76.957
G1 F1800.000 E1.00000
G1 X60.043 Y76.273 F1080.000 E1.03827
G1 X60.727 Y76.957 E1.09239
G1 X61.411 Y76.957 E1.13065
G1 X60.043 Y75.589 E1.23887
G1 X60.043 Y74.905 E1.27713
G1 X62.095 Y76.957 E1.43946
G1 X62.779 Y76.957 E1.47772
G1 X60.043 Y74.221 E1.69415
G1 X60.043 Y73.537 E1.73241
G1 X63.463 Y76.957 E2.00295
G1 X64.147 Y76.957 E2.04121
G1 X60.043 Y72.853 E2.36585
G1 X60.043 Y72.169 E2.40411
G1 X64.831 Y76.957 E2.78286
G1 X65.515 Y76.957 E2.82112
G1 X60.043 Y71.485 E3.25397
G1 X60.043 Y70.801 E3.29223
G1 X66.199 Y76.957 E3.77919
G1 X66.883 Y76.957 E3.81744
G1 X60.043 Y70.117 E4.35851
G1 X60.043 Y69.433 E4.39676
G1 X67.567 Y76.957 E4.99193
G1 X68.251 Y76.957 E5.03019
G1 X60.043 Y68.749 E5.67946
G1 X60.043 Y68.065 E5.71772
G1 X68.935 Y76.957 E6.42110
G1 X69.619 Y76.957 E6.45935
G1 X60.043 Y67.381 E7.21683
G1 X60.043 Y66.697 E7.25509
G1 X70.303 Y76.957 E8.06668
G1 X70.987 Y76.957 E8.10494
G1 X60.043 Y66.013 E8.97063
G1 X60.043 Y65.329 E9.00888
G1 X71.671 Y76.957 E9.92868
G1 X72.355 Y76.957 E9.96694
G1 X60.043 Y64.645 E10.94084
G1 X60.043 Y63.961 E10.97910
G1 X73.039 Y76.957 E12.00710
G1 X73.723 Y76.957 E12.04536
G1 X60.043 Y63.277 E13.12747
G1 X60.043 Y62.593 E13.16573
G1 X74.407 Y76.957 E14.30194
G1 X75.091 Y76.957 E14.34020
G1 X60.043 Y61.909 E15.53052
G1 X60.043 Y61.225 E15.56877
G1 X75.775 Y76.957 E16.81320
G1 X76.459 Y76.957 E16.85146
G1 X60.545 Y61.043 E18.11026
G1 X61.229 Y61.043 E18.14852
G1 X77.143 Y76.957 E19.40732
G1 X77.827 Y76.957 E19.44558
G1 X61.913 Y61.043 E20.70439
G1 X62.597 Y61.043 E20.74264
G1 X78.511 Y76.957 E22.00145
G1 X79.195 Y76.957 E22.03971
G1 X63.281 Y61.043 E23.29851
G1 X63.965 Y61.043 E23.33677
G1 X79.879 Y76.957 E24.59557
G1 X80.563 Y76.957 E24.63383
G1 X64.649 Y61.043 E25.89264
G1 X65.333 Y61.043 E25.93090
G1 X81.247 Y76.957 E27.18970
G1 X81.931 Y76.957 E27.22796
G1 X66.017 Y61.043 E28.48676
G1 X66.701 Y61.043 E28.52502
G1 X82.615 Y76.957 E29.78383
G1 X83.299 Y76.957 E29.82208
G1 X67.385 Y61.043 E31.08089
G1 X68.069 Y61.043 E31.11915
G1 X83.983 Y76.957 E32.37795
G1 X84.667 Y76.957 E32.41621
G1 X68.753 Y61.043 E33.67501
G1 X69.437 Y61.043 E33.71327
G1 X85.351 Y76.957 E34.97208
G1 X86.035 Y76.957 E35.01033
G1 X70.121 Y61.043 E36.26914
G1 X70.805 Y61.043 E36.30740
G1 X86.719 Y76.957 E37.56620
G1 X87.403 Y76.957 E37.60446
G1 X71.489 Y61.043 E38.86326
G1 X72.173 Y61.043 E38.90152
G1 X88.087 Y76.957 E40.16033
G1 X88.771 Y76.957 E40.19859
G1 X72.857 Y61.043 E41.45739
G1 X73.541 Y61.043 E41.49565
G1 X89.455 Y76.957 E42.75445
G1 X89.957 Y76.775 E42.78432
G1 X74.225 Y61.043 E44.02874
G1 X74.909 Y61.043 E44.06700
G1 X89.957 Y76.091 E45.25731
G1 X89.957 Y75.407 E45.29557
G1 X75.593 Y61.043 E46.43178
G1 X76.277 Y61.043 E46.47003
G1 X89.957 Y74.723 E47.55214
G1 X89.957 Y74.039 E47.59040
G1 X76.961 Y61.043 E48.61840
G1 X77.645 Y61.043 E48.65665
G1 X89.957 Y73.355 E49.63055
G1 X89.957 Y72.671 E49.66880
G1 X78.329 Y61.043 E50.58859
G1 X79.013 Y61.043 E50.62685
G1 X89.957 Y71.987 E51.49254
G1 X89.957 Y71.303 E51.53079
G1 X79.697 Y61.043 E52.34237
G1 X80.381 Y61.043 E52.38063
G1 X89.957 Y70.619 E53.13811
G1 X89.957 Y69.935 E53.17637
G1 X81.065 Y61.043 E53.87974
G1 X81.749 Y61.043 E53.91799
G1 X89.957 Y69.251 E54.56726
G1 X89.957 Y68.567 E54.60552
G1 X82.433 Y61.043 E55.20068
G1 X83.117 Y61.043 E55.23894
G1 X89.957 Y67.883 E55.77999
G1 X89.957 Y67.199 E55.81825
G1 X83.801 Y61.043 E56.30520
G1 X84.485 Y61.043 E56.34346
G1 X89.957 Y66.515 E56.77631
G1 X89.957 Y65.831 E56.81457
G1 X85.169 Y61.043 E57.19331
G1 X85.853 Y61.043 E57.23157
G1 X89.957 Y65.147 E57.55620
G1 X89.957 Y64.463 E57.59446
G1 X86.537 Y61.043 E57.86500
G1 X87.221 Y61.043 E57.90325
G1 X89.957 Y63.779 E58.11968
G1 X89.957 Y63.095 E58.15794
G1 X87.905 Y61.043 E58.32026
G1 X88.589 Y61.043 E58.35852
G1 X89.957 Y62.411 E58.46674
G1 X89.957 Y61.727 E58.50500
G1 X89.273 Y61.043 E58.55911
G1 X89.957 Y61.043 E58.59738
G1 F1800.000 E57.59738
G92 E0
G1 X91.000 Y61.500 F7800.000
G1 X52.000 Y61.500
G1 X52.707 Y60.793
G1 F1800.000 E1.00000
G1 X53.353 Y60.707 F360.000 E1.03898
G1 X53.439 Y60.793 E1.04626
G1 X54.085 Y60.707 E1.08525
G1 X54.171 Y60.793 E1.09253
G1 X54.816 Y60.707 E1.13151
G1 X54.902 Y60.793 E1.13879
G1 X55.548 Y60.707 E1.17777
G1 X55.634 Y60.793 E1.18505
G1 X56.280 Y60.707 E1.22404
G1 X56.366 Y60.793 E1.23132
G1 X57.012 Y60.707 E1.27030
G1 X57.098 Y60.793 E1.27758
G1 X57.743 Y60.707 E1.31656
G1 X57.830 Y60.793 E1.32384
G1 X58.475 Y60.707 E1.36283
G1 X58.561 Y60.793 E1.37011
G1 X59.207 Y60.707 E1.40910
G1 F1800.000 E0.40910
G92 E0
G1 X59.000 Y61.500 F7800.000
G1 X91.000 Y61.500
G1 X90.793 Y60.793
G1 F1800.000 E1.00000
G1 X91.439 Y60.707 F360.000 E1.03898
G1 X91.525 Y60.793 E1.04626
G1 X92.170 Y60.707 E1.08525
G1 X92.257 Y60.793 E1.09253
G1 X92.902 Y60.707 E1.13151
G1 X92.988 Y60.793 E1.13879
G1 X93.634 Y60.707 E1.17777
G1 X93.720 Y60.793 E1.18505
G1 X94.366 Y60.707 E1.22404
G1 X94.452 Y60.793 E1.23132
G1 X95.098 Y60.707 E1.27030
G1 X95.184 Y60.793 E1.27758
G1 X95.829 Y60.707 E1.31656
G1 X95.915 Y60.793 E1.32385
G1 X96.561 Y60.707 E1.36283
G1 X96.647 Y60.793 E1.37011
G1 X97.293 Y60.707 E1.40910
M106 S218
G1 F1800.000 E0.40910
G92 E0
G1 Z0.500 F7800.000
G1 X98.000 Y60.000
G1 X91.000 Y61.500
G1 X90.243 Y60.757
G1 F1800.000 E1.00000
G1 X90.243 Y77.243 F1800.000 E1.95840
G1 X59.757 Y77.243 E3.73064
G1 X59.757 Y60.757 E4.68904
G1 X90.168 Y60.757 E6.45689
G1 X90.746 Y61.246 F7800.000
G1 X90.746 Y77.746 F1800.000 E7.41606
G1 X59.254 Y77.746 E9.24674
G1 X59.254 Y61.246 E10.20591
G1 X52.254 Y61.246 E10.61283
G1 X52.254 Y60.254 E10.67050
G1 X97.746 Y60.254 E13.31502
G1 X97.746 Y61.246 E13.37269
G1 X90.821 Y61.246 E13.77522
G1 X91.249 Y61.749 F7800.000
G1 X91.249 Y78.249 F1260.000 E14.73439
G1 X58.751 Y78.249 E16.62351
G1 X58.751 Y61.749 E17.58268
G1 X51.751 Y61.749 E17.98960
G1 X51.751 Y59.751 E18.10571
G1 X98.249 Y59.751 E20.80867
G1 X98.249 Y61.749 E20.92478
G1 X91.324 Y61.749 E21.32732
G1 X90.746 Y61.749 F7800.000
G1 F1800.000 E20.32732
G92 E0
G1 X91.000 Y61.500 F7800.000
G1 X91.000 Y78.000
G1 X89.879 Y76.879
G1 F1800.000 E1.00000
G1 X89.168 Y76.879 F3600.000 E1.04137
G1 X89.879 Y76.168 E1.09988
G1 X89.879 Y75.456 E1.14124
G1 X88.456 Y76.879 E1.25825
G1 X87.745 Y76.879 E1.29961
G1 X89.879 Y74.745 E1.47511
G1 X89.879 Y74.034 E1.51647
G1 X87.034 Y76.879 E1.75046
G1 X86.323 Y76.879 E1.79182
G1 X89.879 Y73.323 E2.08430
G1 X89.879 Y72.612 E2.12566
G1 X85.612 Y76.879 E2.47664
G1 X84.901 Y76.879 E2.51800
G1 X89.879 Y71.901 E2.92747
G1 X89.879 Y71.189 E2.96884
G1 X84.189 Y76.879 E3.43680
G1 X83.478 Y76.879 E3.47816
G1 X89.879 Y70.478 E4.00462
G1 X89.879 Y69.767 E4.04598
G1 X82.767 Y76.879 E4.63093
G1 X82.056 Y76.879 E4.67230
G1 X89.879 Y69.056 E5.31574
G1 X89.879 Y68.345 E5.35710
G1 X81.345 Y76.879 E6.05904
G1 X80.633 Y76.879 E6.10040
G1 X89.879 Y67.633 E6.86084
G1 X89.879 Y66.922 E6.90220
G1 X79.922 Y76.879 E7.72112
G1 X79.211 Y76.879 E7.76248
G1 X89.879 Y66.211 E8.63990
G1 X89.879 Y65.500 E8.68126
G1 X78.500 Y76.879 E9.61718
G1 X77.789 Y76.879 E9.65854
G1 X89.879 Y64.789 E10.65295
G1 X89.879 Y64.078 E10.69431
G1 X77.078 Y76.879 E11.74721
G1 X76.366 Y76.879 E11.78857
G1 X89.879 Y63.366 E12.89996
G1 X89.879 Y62.655 E12.94132
G1 X75.655 Y76.879 E14.11121
G1 X74.944 Y76.879 E14.15257
G1 X89.879 Y61.944 E15.38096
G1 X89.879 Y61.233 E15.42232
G1 X74.233 Y76.879 E16.70919
G1 X73.522 Y76.879 E16.75055
G1 X89.280 Y61.121 E18.04662
G1 X88.569 Y61.121 E18.08799
G1 X72.810 Y76.879 E19.38406
G1 X72.099 Y76.879 E19.42542
G1 X87.857 Y61.121 E20.72149
G1 X87.146 Y61.121 E20.76285
G1 X71.388 Y76.879 E22.05892
G1 X70.677 Y76.879 E22.10029
G1 X86.435 Y61.121 E23.39636
G1 X85.724 Y61.121 E23.43772
G1 X69.966 Y76.879 E24.73379
G1 X69.254 Y76.879 E24.77515
G1 X85.013 Y61.121 E26.07123
G1 X84.301 Y61.121 E26.11259
G1 X68.543 Y76.879 E27.40866
G1 X67.832 Y76.879 E27.45002
G1 X83.590 Y61.121 E28.74609
G1 X82.879 Y61.121 E28.78745
G1 X67.121 Y76.879 E30.08353
G1 X66.410 Y76.879 E30.12489
G1 X82.168 Y61.121 E31.42096
G1 X81.457 Y61.121 E31.46232
G1 X65.699 Y76.879 E32.75839
G1 X64.987 Y76.879 E32.79975
G1 X80.745 Y61.121 E34.09583
G1 X80.034 Y61.121 E34.13719
G1 X64.276 Y76.879 E35.43326
G1 X63.565 Y76.879 E35.47462
G1 X79.323 Y61.121 E36.77069
G1 X78.612 Y61.121 E36.81205
G1 X62.854 Y76.879 E38.10813
G1 X62.143 Y76.879 E38.14949
G1 X77.901 Y61.121 E39.44556
G1 X77.190 Y61.121 E39.48692
G1 X61.431 Y76.879 E40.78299
G1 X60.720 Y76.879 E40.82435
G1 X76.478 Y61.121 E42.12043
G1 X75.767 Y61.121 E42.16179
G1 X60.121 Y76.767 E43.44866
G1 X60.121 Y76.056 E43.49002
G1 X75.056 Y61.121 E44.71839
G1 X74.345 Y61.121 E44.75975
G1 X60.121 Y75.345 E45.92964
G1 X60.121 Y74.634 E45.97100
G1 X73.634 Y61.121 E47.08239
G1 X72.922 Y61.121 E47.12375
G1 X60.121 Y73.922 E48.17664
G1 X60.121 Y73.211 E48.21800
G1 X72.211 Y61.121 E49.21240
G1 X71.500 Y61.121 E49.25376
G1 X60.121 Y72.500 E50.18967
G1 X60.121 Y71.789 E50.23103
G1 X70.789 Y61.121 E51.10845
G1 X70.078 Y61.121 E51.14981
G1 X60.121 Y71.078 E51.96873
G1 X60.121 Y70.366 E52.01009
G1 X69.366 Y61.121 E52.77052
G1 X68.655 Y61.121 E52.81188
G1 X60.121 Y69.655 E53.51381
G1 X60.121 Y68.944 E53.55517
G1 X67.944 Y61.121 E54.19861
G1 X67.233 Y61.121 E54.23997
G1 X60.121 Y68.233 E54.82492
G1 X60.121 Y67.522 E54.86628
G1 X66.522 Y61.121 E55.39273
G1 X65.811 Y61.121 E55.43409
G1 X60.121 Y66.811 E55.90205
G1 X60.121 Y66.099 E55.94341
G1 X65.099 Y61.121 E56.35288
G1 X64.388 Y61.121 E56.39424
G1 X60.121 Y65.388 E56.74521
G1 X60.121 Y64.677 E56.78657
G1 X63.677 Y61.121 E57.07905
G1 X62.966 Y61.121 E57.12041
G1 X60.121 Y63.966 E57.35440
G1 X60.121 Y63.255 E57.39576
G1 X62.255 Y61.121 E57.57125
G1 X61.543 Y61.121 E57.61261
G1 X60.121 Y62.543 E57.72961
G1 X60.121 Y61.832 E57.77097
G1 X60.832 Y61.121 E57.82947
G1 X60.121 Y61.121 E57.87084
G1 F1800.000 E56.87084
G92 E0
G1 X59.000 Y61.500 F7800.000
G1 X98.000 Y61.500
G1 X97.389 Y60.888
G1 F1800.000 E1.00000
G1 X97.294 Y60.611 F1200.000 E1.00890
G1 X97.017 Y60.889 E1.02083
G1 X96.922 Y60.611 E1.02974
G1 X96.645 Y60.889 E1.04166
