; generated by Slic3r 0.9.9 on 2015-06-02 at 18:22:38

; layer_height = 0.25
; perimeters = 3
; top_solid_layers = 5
; bottom_solid_layers = 3
; fill_density = 0.5
; perimeter_speed = 30
; infill_speed = 60
; travel_speed = 130
; nozzle_diameter = 0.4
; filament_diameter = 1.70
; extrusion_multiplier = 1.05
; perimeters extrusion width = 0.53mm
; infill extrusion width = 0.53mm
; solid infill extrusion width = 0.53mm
; top infill extrusion width = 0.53mm
; first layer extrusion width = 0.50mm

G21 ; set units to millimeters
M107
M190 S70 ; wait for bed temperature to be reached
M104 S205 ; set temperature
G28 ; home all axes
G1 Z5 F5000 ; lift nozzle
M109 S205 ; wait for temperature to be reached
G90 ; use absolute coordinates
G92 E0
M82 ; use absolute distances for extrusion
G1 F1800.000 E-1.00000
G92 E0
G1 Z0.250 F7800.000
G1 X50.279 Y36.410
G1 F1800.000 E1.00000
G1 X50.799 Y35.780 F540.000 E1.04521
G1 X51.389 Y35.210 E1.09061
G1 X51.819 Y34.870 E1.12095
G1 X52.509 Y34.430 E1.16624
G1 X53.249 Y34.070 E1.21178
G1 X54.019 Y33.800 E1.25694
G1 X54.819 Y33.630 E1.30220
G1 X55.359 Y33.560 E1.33234
G1 X55.909 Y33.540 E1.36279
G1 X94.089 Y33.540 E3.47577
G1 X94.639 Y33.560 E3.50623
G1 X94.909 Y33.590 E3.52127
G1 X95.449 Y33.680 E3.55156
G1 X95.979 Y33.800 E3.58164
G1 X96.749 Y34.070 E3.62680
G1 X97.489 Y34.430 E3.67234
G1 X97.959 Y34.720 E3.70290
G1 X98.399 Y35.040 E3.73301
G1 X98.809 Y35.390 E3.76285
G1 X99.199 Y35.780 E3.79337
G1 X99.549 Y36.190 E3.82320
G1 X99.869 Y36.630 E3.85331
G1 X100.159 Y37.100 E3.88388
G1 X100.409 Y37.590 E3.91432
G1 X100.619 Y38.090 E3.94433
G1 X100.789 Y38.610 E3.97461
G1 X100.909 Y39.140 E4.00469
G1 X100.999 Y39.680 E4.03498
G1 X101.029 Y39.950 E4.05002
G1 X101.049 Y40.500 E4.08048
G1 X101.049 Y42.500 E4.19116
G1 X100.969 Y43.550 E4.24944
G1 X98.379 Y60.550 E5.20112
G1 X98.209 Y61.350 E5.24638
G1 X98.039 Y61.870 E5.27666
G1 X97.829 Y62.380 E5.30718
G1 X97.449 Y63.110 E5.35273
G1 X96.979 Y63.790 E5.39848
G1 X96.439 Y64.400 E5.44356
G1 X96.029 Y64.780 E5.47450
G1 X95.379 Y65.280 E5.51988
G1 X94.669 Y65.690 E5.56526
G1 X93.919 Y66.020 E5.61061
G1 X93.129 Y66.260 E5.65630
G1 X92.589 Y66.370 E5.68680
G1 X92.049 Y66.440 E5.71693
G1 X91.499 Y66.460 E5.74739
G1 X58.499 Y66.460 E7.57370
G1 X57.949 Y66.440 E7.60416
G1 X57.679 Y66.410 E7.61919
G1 X57.139 Y66.320 E7.64949
G1 X56.599 Y66.190 E7.68023
G1 X55.829 Y65.920 E7.72538
G1 X55.089 Y65.560 E7.77093
G1 X54.619 Y65.280 E7.80120
G1 X54.399 Y65.120 E7.81626
G1 X53.759 Y64.590 E7.86225
G1 X53.189 Y64.000 E7.90765
G1 X52.699 Y63.340 E7.95314
G1 X52.549 Y63.110 E7.96834
G1 X52.289 Y62.630 E7.99855
G1 X52.059 Y62.130 E8.02901
G1 X51.869 Y61.620 E8.05913
G1 X51.789 Y61.350 E8.07471
G1 X51.619 Y60.550 E8.11997
G1 X49.029 Y43.550 E9.07165
G1 X48.949 Y42.500 E9.12993
G1 X48.949 Y40.500 E9.24062
G1 X48.969 Y39.950 E9.27108
G1 X49.089 Y39.140 E9.31639
G1 X49.209 Y38.610 E9.34647
G1 X49.479 Y37.840 E9.39163
G1 X49.839 Y37.100 E9.43717
G1 X50.238 Y36.469 E9.47849
G1 X50.639 Y36.740 F7800.000
G1 X51.139 Y36.110 F540.000 E9.52300
G1 X51.519 Y35.730 E9.55274
G1 X51.929 Y35.390 E9.58222
G1 X52.589 Y34.930 E9.62674
G1 X53.059 Y34.680 E9.65620
G1 X53.549 Y34.460 E9.68593
G1 X54.059 Y34.290 E9.71568
G1 X54.839 Y34.110 E9.75998
G1 X55.379 Y34.040 E9.79012
G1 X55.909 Y34.020 E9.81947
G1 X94.089 Y34.020 E11.93245
G1 X94.619 Y34.040 E11.96180
G1 X94.889 Y34.070 E11.97684
G1 X95.419 Y34.160 E12.00659
G1 X95.939 Y34.290 E12.03625
G1 X96.449 Y34.460 E12.06600
G1 X96.939 Y34.680 E12.09573
G1 X97.409 Y34.930 E12.12519
G1 X98.069 Y35.390 E12.16971
G1 X98.479 Y35.730 E12.19919
G1 X98.859 Y36.110 E12.22893
G1 X99.029 Y36.310 E12.24346
G1 X99.359 Y36.740 E12.27346
G1 X99.659 Y37.180 E12.30293
G1 X99.909 Y37.650 E12.33239
G1 X100.129 Y38.140 E12.36212
G1 X100.299 Y38.650 E12.39187
G1 X100.429 Y39.170 E12.42153
G1 X100.549 Y39.970 E12.46630
G1 X100.569 Y40.500 E12.49565
G1 X100.569 Y42.500 E12.60634
G1 X100.489 Y43.480 E12.66075
G1 X97.859 Y60.730 E13.62645
G1 X97.739 Y61.250 E13.65598
G1 X97.579 Y61.750 E13.68503
G1 X97.259 Y62.470 E13.72864
G1 X96.859 Y63.140 E13.77182
G1 X96.369 Y63.770 E13.81599
G1 X95.819 Y64.330 E13.85943
G1 X95.199 Y64.820 E13.90317
G1 X94.529 Y65.230 E13.94664
G1 X94.059 Y65.450 E13.97536
G1 X93.569 Y65.640 E14.00444
G1 X92.799 Y65.850 E14.04861
G1 X92.019 Y65.960 E14.09221
G1 X91.499 Y65.980 E14.12101
G1 X58.499 Y65.980 E15.94732
G1 X57.979 Y65.960 E15.97611
G1 X57.709 Y65.930 E15.99115
G1 X57.199 Y65.850 E16.01972
G1 X56.939 Y65.790 E16.03449
G1 X56.429 Y65.640 E16.06391
G1 X56.189 Y65.550 E16.07809
G1 X55.469 Y65.230 E16.12170
G1 X54.799 Y64.820 E16.16517
G1 X54.179 Y64.330 E16.20890
G1 X53.799 Y63.960 E16.23825
G1 X53.299 Y63.360 E16.28148
G1 X53.139 Y63.140 E16.29653
G1 X52.869 Y62.700 E16.32510
G1 X52.739 Y62.470 E16.33972
G1 X52.519 Y61.990 E16.36895
G1 X52.419 Y61.750 E16.38334
G1 X52.259 Y61.250 E16.41239
G1 X52.139 Y60.730 E16.44192
G1 X49.509 Y43.480 E17.40762
G1 X49.429 Y42.500 E17.46203
G1 X49.429 Y40.500 E17.57272
G1 X49.449 Y39.970 E17.60207
G1 X49.569 Y39.170 E17.64684
G1 X49.699 Y38.650 E17.67650
G1 X49.869 Y38.140 E17.70625
G1 X50.089 Y37.650 E17.73598
G1 X50.339 Y37.180 E17.76544
G1 X50.598 Y36.799 E17.79094
G1 F1800.000 E16.79094
G92 E0
G1 X59.697 Y41.696 F7800.000
G1 F1800.000 E1.00000
G1 X90.305 Y41.696 F540.000 E2.69389
G1 X90.305 Y58.304 E3.61298
G1 X59.697 Y58.304 E5.30687
G1 X59.697 Y41.768 E6.22199
G1 X59.219 Y41.782 F7800.000
G1 X56.635 Y41.782 F540.000 E6.36499
G1 X56.635 Y41.218 E6.39622
G1 X93.371 Y41.218 E8.42929
G1 X93.371 Y41.782 E8.46052
G1 X90.783 Y41.782 E8.60373
G1 X90.783 Y58.782 E9.54455
G1 X59.219 Y58.782 E11.29141
G1 X59.219 Y41.854 E12.22826
G1 X58.740 Y42.261 F7800.000
G1 X56.156 Y42.261 F378.000 E12.37126
G1 X56.156 Y40.739 E12.45546
G1 X93.850 Y40.739 E14.54149
G1 X93.850 Y42.261 E14.62569
G1 X91.262 Y42.261 E14.76890
G1 X91.262 Y59.261 E15.70972
G1 X58.740 Y59.261 E17.50955
G1 X58.740 Y42.333 E18.44640
G1 X58.740 Y41.782 F7800.000
G1 F1800.000 E17.44640
G92 E0
G1 X59.001 Y42.000 F7800.000
G1 X59.001 Y59.000
G1 X60.045 Y57.957
G1 F1800.000 E1.00000
G1 X60.044 Y57.273 F1080.000 E1.03827
G1 X60.728 Y57.957 E1.09239
G1 X61.412 Y57.957 E1.13065
G1 X60.044 Y56.589 E1.23887
G1 X60.044 Y55.905 E1.27713
G1 X62.096 Y57.957 E1.43946
G1 X62.780 Y57.957 E1.47772
G1 X60.044 Y55.221 E1.69415
G1 X60.044 Y54.537 E1.73241
G1 X63.464 Y57.957 E2.00295
G1 X64.148 Y57.957 E2.04121
G1 X60.044 Y53.853 E2.36585
G1 X60.044 Y53.169 E2.40411
G1 X64.832 Y57.957 E2.78286
G1 X65.516 Y57.957 E2.82112
G1 X60.044 Y52.485 E3.25397
G1 X60.044 Y51.801 E3.29223
G1 X66.200 Y57.957 E3.77918
G1 X66.884 Y57.957 E3.81744
G1 X60.044 Y51.117 E4.35851
G1 X60.044 Y50.433 E4.39676
G1 X67.568 Y57.957 E4.99193
G1 X68.252 Y57.957 E5.03019
G1 X60.044 Y49.749 E5.67946
G1 X60.044 Y49.065 E5.71772
G1 X68.936 Y57.957 E6.42109
G1 X69.620 Y57.957 E6.45935
G1 X60.044 Y48.381 E7.21683
G1 X60.044 Y47.697 E7.25509
G1 X70.304 Y57.957 E8.06668
G1 X70.988 Y57.957 E8.10494
G1 X60.044 Y47.013 E8.97063
G1 X60.044 Y46.329 E9.00888
G1 X71.672 Y57.957 E9.92868
G1 X72.356 Y57.957 E9.96694
G1 X60.044 Y45.645 E10.94084
G1 X60.044 Y44.961 E10.97910
G1 X73.040 Y57.957 E12.00710
G1 X73.724 Y57.957 E12.04536
G1 X60.044 Y44.277 E13.12747
G1 X60.044 Y43.593 E13.16573
G1 X74.408 Y57.957 E14.30194
G1 X75.092 Y57.957 E14.34020
G1 X60.044 Y42.909 E15.53052
G1 X60.044 Y42.225 E15.56877
G1 X75.776 Y57.957 E16.81320
G1 X76.460 Y57.957 E16.85146
G1 X60.546 Y42.043 E18.11026
G1 X61.230 Y42.043 E18.14852
G1 X77.144 Y57.957 E19.40732
G1 X77.828 Y57.957 E19.44558
G1 X61.914 Y42.043 E20.70439
G1 X62.598 Y42.043 E20.74264
G1 X78.512 Y57.957 E22.00145
G1 X79.196 Y57.957 E22.03971
G1 X63.282 Y42.043 E23.29851
G1 X63.966 Y42.043 E23.33677
G1 X79.880 Y57.957 E24.59557
G1 X80.564 Y57.957 E24.63383
G1 X64.650 Y42.043 E25.89264
G1 X65.334 Y42.043 E25.93089
G1 X81.248 Y57.957 E27.18970
G1 X81.932 Y57.957 E27.22796
G1 X66.018 Y42.043 E28.48676
G1 X66.702 Y42.043 E28.52502
G1 X82.616 Y57.957 E29.78383
G1 X83.300 Y57.957 E29.82208
G1 X67.386 Y42.043 E31.08089
G1 X68.070 Y42.043 E31.11915
G1 X83.984 Y57.957 E32.37795
G1 X84.668 Y57.957 E32.41621
G1 X68.754 Y42.043 E33.67501
G1 X69.438 Y42.043 E33.71327
G1 X85.352 Y57.957 E34.97208
G1 X86.036 Y57.957 E35.01033
G1 X70.122 Y42.043 E36.26914
G1 X70.806 Y42.043 E36.30740
G1 X86.720 Y57.957 E37.56620
G1 X87.404 Y57.957 E37.60446
G1 X71.490 Y42.043 E38.86326
G1 X72.174 Y42.043 E38.90152
G1 X88.088 Y57.957 E40.16033
G1 X88.772 Y57.957 E40.19858
G1 X72.858 Y42.043 E41.45739
G1 X73.542 Y42.043 E41.49565
G1 X89.456 Y57.957 E42.75445
G1 X89.958 Y57.775 E42.78432
G1 X74.226 Y42.043 E44.02874
G1 X74.910 Y42.043 E44.06700
G1 X89.958 Y57.091 E45.25731
G1 X89.958 Y56.407 E45.29557
G1 X75.594 Y42.043 E46.43178
G1 X76.278 Y42.043 E46.47003
G1 X89.958 Y55.723 E47.55214
G1 X89.958 Y55.039 E47.59040
G1 X76.962 Y42.043 E48.61839
G1 X77.646 Y42.043 E48.65665
G1 X89.958 Y54.355 E49.63055
G1 X89.958 Y53.671 E49.66880
G1 X78.330 Y42.043 E50.58859
G1 X79.014 Y42.043 E50.62685
G1 X89.958 Y52.987 E51.49254
G1 X89.958 Y52.303 E51.53079
G1 X79.698 Y42.043 E52.34237
G1 X80.382 Y42.043 E52.38063
G1 X89.958 Y51.619 E53.13811
G1 X89.958 Y50.935 E53.17636
G1 X81.066 Y42.043 E53.87974
G1 X81.750 Y42.043 E53.91799
G1 X89.958 Y50.251 E54.56726
G1 X89.958 Y49.567 E54.60552
G1 X82.434 Y42.043 E55.20068
G1 X83.118 Y42.043 E55.23894
G1 X89.958 Y48.883 E55.77999
G1 X89.958 Y48.199 E55.81825
G1 X83.802 Y42.043 E56.30520
G1 X84.486 Y42.043 E56.34346
G1 X89.958 Y47.515 E56.77631
G1 X89.958 Y46.831 E56.81457
G1 X85.170 Y42.043 E57.19331
G1 X85.854 Y42.043 E57.23157
G1 X89.958 Y46.147 E57.55620
G1 X89.958 Y45.463 E57.59446
G1 X86.538 Y42.043 E57.86499
G1 X87.222 Y42.043 E57.90325
G1 X89.958 Y44.779 E58.11968
G1 X89.958 Y44.095 E58.15794
G1 X87.906 Y42.043 E58.32026
G1 X88.590 Y42.043 E58.35852
G1 X89.958 Y43.411 E58.46674
G1 X89.958 Y42.727 E58.50500
G1 X89.274 Y42.043 E58.55911
G1 X89.958 Y42.043 E58.59738
M106 S227
G1 F1800.000 E57.59738
G92 E0
G1 Z0.500 F7800.000
G1 X90.245 Y41.757
G1 F1800.000 E1.00000
G1 X90.245 Y58.243 F1800.000 E1.95840
G1 X59.758 Y58.243 E3.73064
G1 X59.758 Y41.757 E4.68904
G1 X90.169 Y41.757 E6.45689
G1 X90.747 Y41.254 F7800.000
G1 X90.747 Y58.746 F1800.000 E7.47373
G1 X59.255 Y58.746 E9.30441
G1 X59.255 Y41.254 E10.32125
G1 X90.672 Y41.254 E12.14754
G1 X91.250 Y42.249 F7800.000
G1 X91.250 Y59.249 F1260.000 E13.13578
G1 X58.752 Y59.249 E15.02490
G1 X58.752 Y42.249 E16.01313
G1 X56.001 Y42.249 E16.17310
G1 X56.001 Y40.751 E16.26014
G1 X94.011 Y40.751 E18.46975
G1 X94.011 Y42.249 E18.55679
G1 X91.325 Y42.249 E18.71293
G1 X90.747 Y42.249 F7800.000
G1 F1800.000 E17.71293
G92 E0
G1 X91.001 Y42.000 F7800.000
G1 X91.001 Y59.000
G1 X89.880 Y57.879
G1 F1800.000 E1.00000
G1 X89.169 Y57.879 F3600.000 E1.04137
G1 X89.880 Y57.168 E1.09988
G1 X89.880 Y56.456 E1.14124
G1 X88.458 Y57.879 E1.25825
G1 X87.746 Y57.879 E1.29961
G1 X89.880 Y55.745 E1.47511
G1 X89.880 Y55.034 E1.51647
G1 X87.035 Y57.879 E1.75046
G1 X86.324 Y57.879 E1.79182
G1 X89.880 Y54.323 E2.08430
G1 X89.880 Y53.612 E2.12566
G1 X85.613 Y57.879 E2.47664
G1 X84.902 Y57.879 E2.51800
G1 X89.880 Y52.901 E2.92748
G1 X89.880 Y52.189 E2.96884
G1 X84.191 Y57.879 E3.43680
G1 X83.479 Y57.879 E3.47816
G1 X89.880 Y51.478 E4.00462
G1 X89.880 Y50.767 E4.04598
G1 X82.768 Y57.879 E4.63093
G1 X82.057 Y57.879 E4.67230
G1 X89.880 Y50.056 E5.31574
G1 X89.880 Y49.345 E5.35710
G1 X81.346 Y57.879 E6.05904
G1 X80.635 Y57.879 E6.10040
G1 X89.880 Y48.633 E6.86084
G1 X89.880 Y47.922 E6.90220
G1 X79.923 Y57.879 E7.72112
G1 X79.212 Y57.879 E7.76248
G1 X89.880 Y47.211 E8.63990
G1 X89.880 Y46.500 E8.68127
G1 X78.501 Y57.879 E9.61718
G1 X77.790 Y57.879 E9.65854
G1 X89.880 Y45.789 E10.65295
G1 X89.880 Y45.078 E10.69431
G1 X77.079 Y57.879 E11.74721
G1 X76.367 Y57.879 E11.78857
G1 X89.880 Y44.366 E12.89997
G1 X89.880 Y43.655 E12.94133
G1 X75.656 Y57.879 E14.11121
G1 X74.945 Y57.879 E14.15258
G1 X89.880 Y42.944 E15.38096
G1 X89.880 Y42.233 E15.42232
G1 X74.234 Y57.879 E16.70919
G1 X73.523 Y57.879 E16.75055
G1 X89.281 Y42.121 E18.04663
G1 X88.570 Y42.121 E18.08799
G1 X72.812 Y57.879 E19.38406
G1 X72.100 Y57.879 E19.42542
G1 X87.858 Y42.121 E20.72149
G1 X87.147 Y42.121 E20.76286
G1 X71.389 Y57.879 E22.05893
G1 X70.678 Y57.879 E22.10029
G1 X86.436 Y42.121 E23.39636
G1 X85.725 Y42.121 E23.43772
G1 X69.967 Y57.879 E24.73379
G1 X69.256 Y57.879 E24.77516
G1 X85.014 Y42.121 E26.07123
G1 X84.303 Y42.121 E26.11259
G1 X68.544 Y57.879 E27.40866
G1 X67.833 Y57.879 E27.45002
G1 X83.591 Y42.121 E28.74610
G1 X82.880 Y42.121 E28.78746
G1 X67.122 Y57.879 E30.08353
G1 X66.411 Y57.879 E30.12489
G1 X82.169 Y42.121 E31.42096
G1 X81.458 Y42.121 E31.46232
G1 X65.700 Y57.879 E32.75840
G1 X64.988 Y57.879 E32.79976
G1 X80.747 Y42.121 E34.09583
G1 X80.035 Y42.121 E34.13719
G1 X64.277 Y57.879 E35.43326
G1 X63.566 Y57.879 E35.47462
G1 X79.324 Y42.121 E36.77070
G1 X78.613 Y42.121 E36.81206
G1 X62.855 Y57.879 E38.10813
G1 X62.144 Y57.879 E38.14949
G1 X77.902 Y42.121 E39.44556
G1 X77.191 Y42.121 E39.48693
G1 X61.433 Y57.879 E40.78300
G1 X60.721 Y57.879 E40.82436
G1 X76.479 Y42.121 E42.12043
G1 X75.768 Y42.121 E42.16179
G1 X60.122 Y57.767 E43.44866
G1 X60.122 Y57.056 E43.49002
G1 X75.057 Y42.121 E44.71840
G1 X74.346 Y42.121 E44.75976
G1 X60.122 Y56.345 E45.92964
G1 X60.122 Y55.634 E45.97100
G1 X73.635 Y42.121 E47.08239
G1 X72.924 Y42.121 E47.12375
G1 X60.122 Y54.922 E48.17665
G1 X60.122 Y54.211 E48.21801
G1 X72.212 Y42.121 E49.21241
G1 X71.501 Y42.121 E49.25377
G1 X60.122 Y53.500 E50.18968
G1 X60.122 Y52.789 E50.23104
G1 X70.790 Y42.121 E51.10845
G1 X70.079 Y42.121 E51.14981
G1 X60.122 Y52.078 E51.96873
G1 X60.122 Y51.366 E52.01010
G1 X69.368 Y42.121 E52.77052
G1 X68.656 Y42.121 E52.81188
G1 X60.122 Y50.655 E53.51382
G1 X60.122 Y49.944 E53.55518
G1 X67.945 Y42.121 E54.19862
G1 X67.234 Y42.121 E54.23998
G1 X60.122 Y49.233 E54.82492
G1 X60.122 Y48.522 E54.86629
G1 X66.523 Y42.121 E55.39274
G1 X65.812 Y42.121 E55.43410
G1 X60.122 Y47.811 E55.90206
G1 X60.122 Y47.099 E55.94342
G1 X65.101 Y42.121 E56.35288
G1 X64.389 Y42.121 E56.39425
G1 X60.122 Y46.388 E56.74522
G1 X60.122 Y45.677 E56.78658
G1 X63.678 Y42.121 E57.07906
G1 X62.967 Y42.121 E57.12042
G1 X60.122 Y44.966 E57.35440
G1 X60.122 Y44.255 E57.39576
G1 X62.256 Y42.121 E57.57126
G1 X61.545 Y42.121 E57.61262
G1 X60.122 Y43.543 E57.72961
G1 X60.122 Y42.832 E57.77098
G1 X60.833 Y42.121 E57.82948
G1 X60.122 Y42.121 E57.87085
G1 F1800.000 E56.87085
G92 E0
G1 X59.001 Y42.000 F7800.000
G1 X93.763 Y42.000
G1 X93.362 Y41.599
G1 F1800.000 E1.00000
G1 X92.479 Y41.401 F1200.000 E1.08011
G1 X92.280 Y41.599 E1.10500
G1 X91.396 Y41.401 E1.18511
G1 F1800.000 E0.18511
G92 E0
G1 X91.001 Y42.000 F7800.000
G1 X59.001 Y42.000
G1 X58.606 Y41.599
G1 F1800.000 E1.00000
G1 X57.727 Y41.401 F1200.000 E1.07934
G1 X57.528 Y41.599 E1.10411
G1 X56.650 Y41.401 E1.18345
M106 S227
G1 F1800.000 E0.18345
G92 E0
G1 Z0.750 F7800.000
G1 X56.090 Y41.000
G1 X59.001 Y42.000
G1 X59.758 Y41.757
G1 F1800.000 E1.00000
G1 X90.245 Y41.757 F1800.000 E2.77224
G1 X90.245 Y58.243 E3.73064
G1 X59.758 Y58.243 E5.50288
G1 X59.758 Y41.832 E6.45689
G1 X59.255 Y41.254 F7800.000
G1 X90.747 Y41.254 F1800.000 E8.28757
G1 X90.747 Y58.746 E9.30441
G1 X59.255 Y58.746 E11.13509
G1 X59.255 Y41.329 E12.14754
G1 X58.752 Y42.249 F7800.000
G1 X55.841 Y42.249 F1260.000 E12.31679
G1 X55.841 Y40.751 E12.40383
G1 X94.171 Y40.751 E14.63200
G1 X94.171 Y42.249 E14.71905
G1 X91.250 Y42.249 E14.88885
G1 X91.250 Y59.249 E15.87709
G1 X58.752 Y59.249 E17.76621
G1 X58.752 Y42.324 E18.75006
G1 X58.752 Y41.746 F7800.000
G1 F1800.000 E17.75006
G92 E0
G1 X59.001 Y42.000 F7800.000
G1 X59.001 Y59.000
G1 X60.122 Y57.879
G1 F1800.000 E1.00000
G1 X60.122 Y57.168 F3600.000 E1.04137
G1 X60.833 Y57.879 E1.09988
G1 X61.545 Y57.879 E1.14124
G1 X60.122 Y56.456 E1.25825
G1 X60.122 Y55.745 E1.29961
G1 X62.256 Y57.879 E1.47511
G1 X62.967 Y57.879 E1.51647
G1 X60.122 Y55.034 E1.75046
G1 X60.122 Y54.323 E1.79182
G1 X63.678 Y57.879 E2.08430
G1 X64.389 Y57.879 E2.12566
G1 X60.122 Y53.612 E2.47664
G1 X60.122 Y52.901 E2.51800
